; G-Code generated by Simplify3D(R) Version 4.0.0
; Feb 26, 2021 at 1:37:49 PM
; Settings Summary
;   processName,Process1
;   applyToModels,adaper press
;   profileName,BOX 3.0 (modified)
;   profileVersion,2021-02-08 22:01:06
;   baseProfile,
;   printMaterial,
;   printQuality,
;   printExtruders,
;   extruderName,Primary Extruder
;   extruderToolheadNumber,0
;   extruderDiameter,0.4
;   extruderAutoWidth,1
;   extruderWidth,0.48
;   extrusionMultiplier,1
;   extruderUseRetract,1
;   extruderRetractionDistance,1.5
;   extruderExtraRestartDistance,0
;   extruderRetractionZLift,0
;   extruderRetractionSpeed,2100
;   extruderUseCoasting,0
;   extruderCoastingDistance,0.2
;   extruderUseWipe,0
;   extruderWipeDistance,5
;   primaryExtruder,0
;   layerHeight,0.2
;   topSolidLayers,3
;   bottomSolidLayers,3
;   perimeterOutlines,3
;   printPerimetersInsideOut,1
;   startPointOption,2
;   startPointOriginX,0
;   startPointOriginY,0
;   sequentialIslands,0
;   spiralVaseMode,0
;   firstLayerHeightPercentage,110
;   firstLayerWidthPercentage,200
;   firstLayerUnderspeed,0.4
;   useRaft,0
;   raftExtruder,0
;   raftTopLayers,2
;   raftBaseLayers,2
;   raftOffset,3
;   raftSeparationDistance,0.42
;   raftTopInfill,100
;   aboveRaftSpeedMultiplier,0.3
;   useSkirt,1
;   skirtExtruder,0
;   skirtLayers,1
;   skirtOutlines,4
;   skirtOffset,0.5
;   usePrimePillar,0
;   primePillarExtruder,999
;   primePillarWidth,12
;   primePillarLocation,7
;   primePillarSpeedMultiplier,1
;   useOozeShield,0
;   oozeShieldExtruder,999
;   oozeShieldOffset,2
;   oozeShieldOutlines,1
;   oozeShieldSidewallShape,1
;   oozeShieldSidewallAngle,30
;   oozeShieldSpeedMultiplier,1
;   infillExtruder,0
;   internalInfillPattern,Rectilinear
;   externalInfillPattern,Rectilinear
;   infillPercentage,40
;   outlineOverlapPercentage,20
;   infillExtrusionWidthPercentage,100
;   minInfillLength,5
;   infillLayerInterval,1
;   internalInfillAngles,45,-45
;   overlapInternalInfillAngles,0
;   externalInfillAngles,45,-45
;   generateSupport,0
;   supportExtruder,0
;   supportInfillPercentage,60
;   supportExtraInflation,0
;   supportBaseLayers,0
;   denseSupportExtruder,0
;   denseSupportLayers,0
;   denseSupportInfillPercentage,70
;   supportLayerInterval,2
;   supportHorizontalPartOffset,0.42
;   supportUpperSeparationLayers,1
;   supportLowerSeparationLayers,1
;   supportType,0
;   supportGridSpacing,4
;   maxOverhangAngle,45
;   supportAngles,0
;   temperatureName,Primary Extruder,Heated Bed
;   temperatureNumber,0,0
;   temperatureSetpointCount,2,1
;   temperatureSetpointLayers,1,2,1
;   temperatureSetpointTemperatures,260,260,80
;   temperatureStabilizeAtStartup,1,1
;   temperatureHeatedBed,0,1
;   temperatureRelayBetweenLayers,0,0
;   temperatureRelayBetweenLoops,0,0
;   fanLayers,1,2
;   fanSpeeds,0,100
;   blipFanToFullPower,0
;   adjustSpeedForCooling,0
;   minSpeedLayerTime,15
;   minCoolingSpeedSlowdown,20
;   increaseFanForCooling,0
;   minFanLayerTime,45
;   maxCoolingFanSpeed,100
;   increaseFanForBridging,0
;   bridgingFanSpeed,100
;   use5D,1
;   relativeEdistances,0
;   allowEaxisZeroing,1
;   independentExtruderAxes,0
;   includeM10123,0
;   stickySupport,1
;   applyToolheadOffsets,0
;   gcodeXoffset,0
;   gcodeYoffset,0
;   gcodeZoffset,0
;   overrideMachineDefinition,1
;   machineTypeOverride,0
;   strokeXoverride,400
;   strokeYoverride,400
;   strokeZoverride,500
;   originOffsetXoverride,0
;   originOffsetYoverride,0
;   originOffsetZoverride,0
;   homeXdirOverride,-1
;   homeYdirOverride,-1
;   homeZdirOverride,-1
;   flipXoverride,1
;   flipYoverride,-1
;   flipZoverride,1
;   toolheadOffsets,0,0|0,0|0,0|0,0|0,0|0,0
;   overrideFirmwareConfiguration,1
;   firmwareTypeOverride,RepRap (Marlin/Repetier/Sprinter)
;   GPXconfigOverride,r2
;   baudRateOverride,115200
;   overridePrinterModels,0
;   printerModelsOverride
;   startingGcode,G28 ; home all axes,G1 Z5 F3000 ; lift,G1 X20 Y2 F1500 ; avoid binder clips,G1 Z0.2 F3000 ; get ready to prime,G92 E0 ; reset extrusion distance,G1 X120 E10 F600 ; prime nozzle,G1 X150 F5000 ; quick wipe
;   layerChangeGcode,
;   retractionGcode,
;   toolChangeGcode,
;   endingGcode,G28 X0 ; home x axis,M106 S0 ; turn off cooling fan,M104 S0 ; turn off extruder,M140 S0 ; turn off bed,M84 ; disable motors
;   exportFileFormat,gcode
;   celebration,0
;   celebrationSong,Random Song
;   postProcessing,,
;   defaultSpeed,4500
;   outlineUnderspeed,1
;   solidInfillUnderspeed,0.8
;   supportUnderspeed,0.8
;   rapidXYspeed,7998
;   rapidZspeed,1998
;   minBridgingArea,50
;   bridgingExtraInflation,0
;   bridgingExtrusionMultiplier,1
;   bridgingSpeedMultiplier,1
;   useFixedBridgingAngle,0
;   fixedBridgingAngle,0
;   applyBridgingToPerimeters,0
;   filamentDiameters,1.75|1.75|1.75|1.75|1.75|1.75
;   filamentPricesPerKg,46|46|46|46|46|46
;   filamentDensities,1.25|1.25|1.25|1.25|1.25|1.25
;   useMinPrintHeight,0
;   minPrintHeight,31.01
;   useMaxPrintHeight,0
;   maxPrintHeight,32.29
;   useDiaphragm,0
;   diaphragmLayerInterval,20
;   robustSlicing,1
;   mergeAllIntoSolid,0
;   onlyRetractWhenCrossingOutline,0
;   retractBetweenLayers,1
;   useRetractionMinTravel,1
;   retractionMinTravel,2
;   retractWhileWiping,1
;   onlyWipeOutlines,1
;   avoidCrossingOutline,1
;   maxMovementDetourFactor,3
;   toolChangeRetractionDistance,12
;   toolChangeExtraRestartDistance,-0.5
;   toolChangeRetractionSpeed,600
;   externalThinWallType,0
;   internalThinWallType,2
;   thinWallAllowedOverlapPercentage,20
;   singleExtrusionMinLength,1
;   singleExtrusionMinPrintingWidthPercentage,50
;   singleExtrusionMaxPrintingWidthPercentage,200
;   singleExtrusionEndpointExtension,0.2
;   horizontalSizeCompensation,0
G90
M82
M106 S0
M140 S80
M190 S80
M104 S260 T0
M109 S260 T0
G28 ; home all axes
G1 Z5 F3000 ; lift
G1 X20 Y2 F1500 ; avoid binder clips
G1 Z0.2 F3000 ; get ready to prime
G92 E0 ; reset extrusion distance
G1 X120 E10 F600 ; prime nozzle
G1 X150 F5000 ; quick wipe
G92 E0
G1 E-1.5000 F2100
G1 Z0.220 F1998
; process Process1
; layer 1, Z = 0.220
T0
; tool H0.220 W0.960
; skirt
G1 X35.445 Y31.215 F7998
G1 E0.0000 F630
G92 E0
G1 X36.216 Y30.408 E0.0980 F1800
G1 X36.849 Y30.137 E0.1585
G1 X76.779 Y30.137 E3.6646
G1 X77.412 Y30.407 E3.7251
G1 X78.183 Y31.214 E3.8230
G1 X78.424 Y31.858 E3.8834
G1 X77.522 Y51.817 E5.6378
G1 X77.521 Y51.835 E5.6393
G1 X77.519 Y51.864 E5.6419
G1 X77.518 Y51.884 E5.6436
G1 X77.369 Y53.549 E5.7904
G1 X77.366 Y53.577 E5.7929
G1 X77.360 Y53.621 E5.7968
G1 X77.357 Y53.648 E5.7992
G1 X77.224 Y54.494 E5.8744
G1 X77.221 Y54.512 E5.8760
G1 X77.216 Y54.542 E5.8786
G1 X77.212 Y54.560 E5.8803
G1 X77.042 Y55.400 E5.9556
G1 X77.036 Y55.428 E5.9580
G1 X77.026 Y55.471 E5.9619
G1 X77.019 Y55.498 E5.9644
G1 X76.574 Y57.130 E6.1129
G1 X76.564 Y57.166 E6.1162
G1 X76.546 Y57.222 E6.1214
G1 X76.534 Y57.257 E6.1246
G1 X75.946 Y58.844 E6.2732
G1 X75.936 Y58.870 E6.2756
G1 X75.920 Y58.911 E6.2796
G1 X75.909 Y58.937 E6.2820
G1 X75.558 Y59.720 E6.3573
G1 X75.550 Y59.737 E6.3590
G1 X75.538 Y59.764 E6.3616
G1 X75.530 Y59.780 E6.3632
G1 X75.146 Y60.546 E6.4384
G1 X75.133 Y60.571 E6.4409
G1 X75.111 Y60.610 E6.4448
G1 X75.098 Y60.634 E6.4472
G1 X74.240 Y62.093 E6.5958
G1 X74.221 Y62.124 E6.5991
G1 X74.189 Y62.174 E6.6043
G1 X74.168 Y62.205 E6.6075
G1 X73.185 Y63.582 E6.7560
G1 X73.169 Y63.604 E6.7584
G1 X73.142 Y63.639 E6.7624
G1 X73.124 Y63.661 E6.7648
G1 X72.581 Y64.325 E6.8401
G1 X72.569 Y64.339 E6.8417
G1 X72.550 Y64.361 E6.8443
G1 X72.538 Y64.375 E6.8460
G1 X71.966 Y65.014 E6.9213
G1 X71.947 Y65.035 E6.9237
G1 X71.916 Y65.067 E6.9276
G1 X71.897 Y65.087 E6.9301
G1 X70.692 Y66.264 E7.0780
G1 X70.672 Y66.284 E7.0805
G1 X70.639 Y66.314 E7.0844
G1 X70.618 Y66.332 E7.0868
G1 X69.961 Y66.894 E7.1627
G1 X69.940 Y66.912 E7.1652
G1 X69.905 Y66.940 E7.1691
G1 X69.883 Y66.957 E7.1715
G1 X68.528 Y67.969 E7.3200
G1 X68.498 Y67.991 E7.3233
G1 X68.449 Y68.024 E7.3285
G1 X68.417 Y68.044 E7.3318
G1 X66.978 Y68.933 E7.4803
G1 X66.954 Y68.947 E7.4827
G1 X66.916 Y68.969 E7.4866
G1 X66.891 Y68.983 E7.4891
G1 X66.126 Y69.387 E7.5651
G1 X66.101 Y69.400 E7.5675
G1 X66.061 Y69.419 E7.5714
G1 X66.036 Y69.431 E7.5739
G1 X64.499 Y70.119 E7.7218
G1 X64.473 Y70.130 E7.7242
G1 X64.432 Y70.146 E7.7281
G1 X64.406 Y70.156 E7.7305
G1 X63.595 Y70.456 E7.8065
G1 X63.569 Y70.465 E7.8089
G1 X63.527 Y70.479 E7.8128
G1 X63.500 Y70.488 E7.8153
G1 X61.877 Y70.968 E7.9638
G1 X61.842 Y70.978 E7.9671
G1 X61.784 Y70.992 E7.9723
G1 X61.748 Y71.000 E7.9756
G1 X60.082 Y71.337 E8.1248
G1 X60.046 Y71.343 E8.1280
G1 X59.987 Y71.352 E8.1332
G1 X59.950 Y71.357 E8.1365
G1 X58.269 Y71.545 E8.2851
G1 X58.240 Y71.547 E8.2876
G1 X58.196 Y71.551 E8.2915
G1 X58.169 Y71.552 E8.2939
G1 X57.313 Y71.591 E8.3691
G1 X57.294 Y71.591 E8.3707
G1 X57.265 Y71.592 E8.3733
G1 X57.246 Y71.592 E8.3750
G1 X56.389 Y71.592 E8.4503
G1 X56.361 Y71.592 E8.4527
G1 X56.317 Y71.590 E8.4566
G1 X56.288 Y71.589 E8.4590
G1 X54.600 Y71.477 E8.6076
G1 X54.563 Y71.474 E8.6109
G1 X54.504 Y71.468 E8.6161
G1 X54.467 Y71.463 E8.6193
G1 X52.796 Y71.202 E8.7679
G1 X52.769 Y71.198 E8.7703
G1 X52.725 Y71.189 E8.7742
G1 X52.697 Y71.184 E8.7767
G1 X51.853 Y70.994 E8.8526
G1 X51.826 Y70.988 E8.8551
G1 X51.783 Y70.977 E8.8590
G1 X51.757 Y70.969 E8.8614
G1 X50.134 Y70.490 E9.0100
G1 X50.099 Y70.479 E9.0132
G1 X50.043 Y70.460 E9.0184
G1 X50.008 Y70.447 E9.0217
G1 X48.434 Y69.826 E9.1703
G1 X48.407 Y69.815 E9.1728
G1 X48.367 Y69.798 E9.1767
G1 X48.342 Y69.786 E9.1791
G1 X47.560 Y69.417 E9.2550
G1 X47.536 Y69.404 E9.2574
G1 X47.496 Y69.384 E9.2613
G1 X47.471 Y69.371 E9.2638
G1 X45.999 Y68.551 E9.4117
G1 X45.975 Y68.537 E9.4142
G1 X45.937 Y68.514 E9.4181
G1 X45.914 Y68.499 E9.4205
G1 X45.188 Y68.029 E9.4964
G1 X45.164 Y68.014 E9.4989
G1 X45.128 Y67.988 E9.5028
G1 X45.106 Y67.972 E9.5052
G1 X43.750 Y66.961 E9.6537
G1 X43.721 Y66.938 E9.6570
G1 X43.675 Y66.901 E9.6622
G1 X43.646 Y66.876 E9.6655
G1 X42.379 Y65.744 E9.8147
G1 X42.352 Y65.718 E9.8180
G1 X42.309 Y65.677 E9.8232
G1 X42.283 Y65.651 E9.8264
G1 X41.121 Y64.411 E9.9757
G1 X41.096 Y64.383 E9.9789
G1 X41.058 Y64.338 E9.9841
G1 X41.034 Y64.309 E9.9874
G1 X39.986 Y62.972 E10.1366
G1 X39.964 Y62.942 E10.1398
G1 X39.930 Y62.894 E10.1451
G1 X39.909 Y62.863 E10.1483
G1 X38.983 Y61.438 E10.2975
G1 X38.963 Y61.406 E10.3008
G1 X38.933 Y61.355 E10.3060
G1 X38.915 Y61.323 E10.3093
G1 X38.119 Y59.822 E10.4585
G1 X38.102 Y59.789 E10.4617
G1 X38.077 Y59.735 E10.4669
G1 X38.062 Y59.701 E10.4702
G1 X37.404 Y58.142 E10.6188
G1 X37.393 Y58.116 E10.6213
G1 X37.377 Y58.074 E10.6252
G1 X37.368 Y58.049 E10.6276
G1 X37.085 Y57.231 E10.7035
G1 X37.077 Y57.204 E10.7060
G1 X37.064 Y57.162 E10.7099
G1 X37.056 Y57.136 E10.7123
G1 X36.612 Y55.511 E10.8602
G1 X36.605 Y55.483 E10.8627
G1 X36.595 Y55.440 E10.8666
G1 X36.589 Y55.413 E10.8690
G1 X36.417 Y54.566 E10.9449
G1 X36.412 Y54.538 E10.9474
G1 X36.404 Y54.494 E10.9513
G1 X36.400 Y54.467 E10.9537
G1 X36.174 Y52.791 E11.1022
G1 X36.170 Y52.754 E11.1055
G1 X36.165 Y52.695 E11.1107
G1 X36.162 Y52.659 E11.1139
G1 X35.203 Y31.860 E12.9421
G1 X35.445 Y31.215 E13.0026
G1 X35.860 Y31.475 F7998
G92 E0
G1 X36.495 Y30.810 E0.0807 F1800
G1 X36.947 Y30.617 E0.1239
G1 X76.681 Y30.617 E3.6128
G1 X77.133 Y30.810 E3.6560
G1 X77.768 Y31.474 E3.7367
G1 X77.940 Y31.935 E3.7798
G1 X77.043 Y51.793 E5.5253
G1 X77.042 Y51.806 E5.5264
G1 X77.041 Y51.830 E5.5286
G1 X77.040 Y51.844 E5.5298
G1 X76.891 Y53.502 E5.6760
G1 X76.889 Y53.522 E5.6778
G1 X76.884 Y53.558 E5.6809
G1 X76.882 Y53.577 E5.6826
G1 X76.750 Y54.417 E5.7573
G1 X76.748 Y54.430 E5.7585
G1 X76.744 Y54.454 E5.7606
G1 X76.741 Y54.467 E5.7618
G1 X76.572 Y55.301 E5.8365
G1 X76.568 Y55.321 E5.8382
G1 X76.560 Y55.356 E5.8414
G1 X76.555 Y55.375 E5.8432
G1 X76.113 Y56.999 E5.9909
G1 X76.105 Y57.024 E5.9932
G1 X76.090 Y57.071 E5.9975
G1 X76.082 Y57.096 E5.9998
G1 X75.498 Y58.674 E6.1476
G1 X75.490 Y58.692 E6.1493
G1 X75.477 Y58.726 E6.1525
G1 X75.469 Y58.744 E6.1543
G1 X75.121 Y59.521 E6.2290
G1 X75.116 Y59.533 E6.2302
G1 X75.105 Y59.555 E6.2323
G1 X75.100 Y59.567 E6.2335
G1 X74.718 Y60.327 E6.3081
G1 X74.709 Y60.345 E6.3099
G1 X74.692 Y60.377 E6.3131
G1 X74.682 Y60.394 E6.3148
G1 X73.829 Y61.845 E6.4626
G1 X73.815 Y61.868 E6.4649
G1 X73.789 Y61.908 E6.4692
G1 X73.774 Y61.930 E6.4715
G1 X72.797 Y63.300 E6.6192
G1 X72.785 Y63.316 E6.6210
G1 X72.763 Y63.345 E6.6242
G1 X72.750 Y63.360 E6.6259
G1 X72.212 Y64.019 E6.7006
G1 X72.203 Y64.029 E6.7018
G1 X72.187 Y64.047 E6.7039
G1 X72.178 Y64.057 E6.7051
G1 X71.611 Y64.691 E6.7798
G1 X71.597 Y64.706 E6.7816
G1 X71.572 Y64.732 E6.7848
G1 X71.558 Y64.746 E6.7865
G1 X70.359 Y65.918 E6.9337
G1 X70.345 Y65.932 E6.9355
G1 X70.318 Y65.957 E6.9387
G1 X70.303 Y65.970 E6.9404
G1 X69.652 Y66.527 E7.0156
G1 X69.637 Y66.540 E7.0174
G1 X69.608 Y66.562 E7.0206
G1 X69.593 Y66.575 E7.0223
G1 X68.245 Y67.581 E7.1701
G1 X68.223 Y67.597 E7.1724
G1 X68.183 Y67.624 E7.1767
G1 X68.161 Y67.639 E7.1790
G1 X66.729 Y68.522 E7.3267
G1 X66.712 Y68.532 E7.3285
G1 X66.680 Y68.551 E7.3317
G1 X66.663 Y68.560 E7.3334
G1 X65.905 Y68.961 E7.4087
G1 X65.888 Y68.970 E7.4104
G1 X65.855 Y68.986 E7.4136
G1 X65.837 Y68.995 E7.4154
G1 X64.306 Y69.679 E7.5626
G1 X64.288 Y69.687 E7.5643
G1 X64.254 Y69.700 E7.5675
G1 X64.236 Y69.708 E7.5693
G1 X63.432 Y70.005 E7.6445
G1 X63.414 Y70.011 E7.6462
G1 X63.379 Y70.023 E7.6494
G1 X63.360 Y70.029 E7.6512
G1 X61.746 Y70.506 E7.7990
G1 X61.721 Y70.513 E7.8013
G1 X61.673 Y70.525 E7.8056
G1 X61.648 Y70.531 E7.8079
G1 X59.992 Y70.865 E7.9562
G1 X59.966 Y70.870 E7.9585
G1 X59.918 Y70.877 E7.9628
G1 X59.892 Y70.881 E7.9651
G1 X58.219 Y71.067 E8.1129
G1 X58.199 Y71.069 E8.1146
G1 X58.163 Y71.072 E8.1178
G1 X58.143 Y71.073 E8.1196
G1 X57.294 Y71.111 E8.1942
G1 X57.281 Y71.111 E8.1954
G1 X57.256 Y71.112 E8.1975
G1 X57.243 Y71.112 E8.1987
G1 X56.392 Y71.112 E8.2734
G1 X56.373 Y71.112 E8.2751
G1 X56.336 Y71.111 E8.2783
G1 X56.316 Y71.110 E8.2801
G1 X54.637 Y70.999 E8.4278
G1 X54.611 Y70.996 E8.4302
G1 X54.562 Y70.991 E8.4344
G1 X54.536 Y70.988 E8.4368
G1 X52.874 Y70.729 E8.5845
G1 X52.854 Y70.725 E8.5862
G1 X52.818 Y70.719 E8.5894
G1 X52.799 Y70.715 E8.5912
G1 X51.962 Y70.527 E8.6664
G1 X51.943 Y70.522 E8.6682
G1 X51.908 Y70.513 E8.6714
G1 X51.889 Y70.508 E8.6731
G1 X50.275 Y70.031 E8.8209
G1 X50.250 Y70.023 E8.8232
G1 X50.204 Y70.008 E8.8274
G1 X50.179 Y69.998 E8.8298
G1 X48.613 Y69.381 E8.9776
G1 X48.595 Y69.373 E8.9793
G1 X48.561 Y69.359 E8.9825
G1 X48.543 Y69.351 E8.9843
G1 X47.769 Y68.984 E9.0595
G1 X47.751 Y68.976 E9.0612
G1 X47.719 Y68.959 E9.0644
G1 X47.701 Y68.950 E9.0662
G1 X46.236 Y68.134 E9.2134
G1 X46.219 Y68.124 E9.2152
G1 X46.188 Y68.105 E9.2184
G1 X46.171 Y68.094 E9.2201
G1 X45.452 Y67.629 E9.2953
G1 X45.435 Y67.618 E9.2971
G1 X45.405 Y67.597 E9.3003
G1 X45.389 Y67.585 E9.3020
G1 X44.041 Y66.579 E9.4497
G1 X44.020 Y66.563 E9.4520
G1 X43.983 Y66.532 E9.4563
G1 X43.962 Y66.515 E9.4587
G1 X42.703 Y65.389 E9.6070
G1 X42.683 Y65.371 E9.6093
G1 X42.649 Y65.337 E9.6136
G1 X42.630 Y65.318 E9.6159
G1 X41.475 Y64.086 E9.7642
G1 X41.457 Y64.066 E9.7665
G1 X41.426 Y64.029 E9.7708
G1 X41.409 Y64.009 E9.7731
G1 X40.368 Y62.680 E9.9214
G1 X40.352 Y62.659 E9.9237
G1 X40.323 Y62.619 E9.9280
G1 X40.308 Y62.597 E9.9303
G1 X39.388 Y61.181 E10.0786
G1 X39.374 Y61.158 E10.0809
G1 X39.350 Y61.116 E10.0852
G1 X39.337 Y61.093 E10.0875
G1 X38.545 Y59.602 E10.2358
G1 X38.534 Y59.578 E10.2381
G1 X38.513 Y59.534 E10.2424
G1 X38.502 Y59.510 E10.2447
G1 X37.848 Y57.959 E10.3925
G1 X37.840 Y57.940 E10.3943
G1 X37.827 Y57.906 E10.3975
