; G-Code generated by Simplify3D(R) Version 4.0.0
; Feb 26, 2021 at 5:03:07 AM
; Settings Summary
;   processName,Process1
;   applyToModels,bloc moteur extruder(2)
;   profileName,BOX 3.0 (modified)
;   profileVersion,2021-02-08 22:01:06
;   baseProfile,
;   printMaterial,
;   printQuality,
;   printExtruders,
;   extruderName,Primary Extruder
;   extruderToolheadNumber,0
;   extruderDiameter,0.4
;   extruderAutoWidth,1
;   extruderWidth,0.48
;   extrusionMultiplier,1
;   extruderUseRetract,1
;   extruderRetractionDistance,1.5
;   extruderExtraRestartDistance,0
;   extruderRetractionZLift,0
;   extruderRetractionSpeed,2100
;   extruderUseCoasting,0
;   extruderCoastingDistance,0.2
;   extruderUseWipe,0
;   extruderWipeDistance,5
;   primaryExtruder,0
;   layerHeight,0.2
;   topSolidLayers,3
;   bottomSolidLayers,3
;   perimeterOutlines,3
;   printPerimetersInsideOut,1
;   startPointOption,2
;   startPointOriginX,0
;   startPointOriginY,0
;   sequentialIslands,0
;   spiralVaseMode,0
;   firstLayerHeightPercentage,110
;   firstLayerWidthPercentage,200
;   firstLayerUnderspeed,0.4
;   useRaft,0
;   raftExtruder,0
;   raftTopLayers,2
;   raftBaseLayers,2
;   raftOffset,3
;   raftSeparationDistance,0.42
;   raftTopInfill,100
;   aboveRaftSpeedMultiplier,0.3
;   useSkirt,1
;   skirtExtruder,0
;   skirtLayers,1
;   skirtOutlines,4
;   skirtOffset,0.5
;   usePrimePillar,0
;   primePillarExtruder,999
;   primePillarWidth,12
;   primePillarLocation,7
;   primePillarSpeedMultiplier,1
;   useOozeShield,0
;   oozeShieldExtruder,999
;   oozeShieldOffset,2
;   oozeShieldOutlines,1
;   oozeShieldSidewallShape,1
;   oozeShieldSidewallAngle,30
;   oozeShieldSpeedMultiplier,1
;   infillExtruder,0
;   internalInfillPattern,Rectilinear
;   externalInfillPattern,Rectilinear
;   infillPercentage,40
;   outlineOverlapPercentage,20
;   infillExtrusionWidthPercentage,100
;   minInfillLength,5
;   infillLayerInterval,1
;   internalInfillAngles,45,-45
;   overlapInternalInfillAngles,0
;   externalInfillAngles,45,-45
;   generateSupport,0
;   supportExtruder,0
;   supportInfillPercentage,60
;   supportExtraInflation,0
;   supportBaseLayers,0
;   denseSupportExtruder,0
;   denseSupportLayers,0
;   denseSupportInfillPercentage,70
;   supportLayerInterval,2
;   supportHorizontalPartOffset,0.42
;   supportUpperSeparationLayers,1
;   supportLowerSeparationLayers,1
;   supportType,0
;   supportGridSpacing,4
;   maxOverhangAngle,45
;   supportAngles,0
;   temperatureName,Primary Extruder,Heated Bed
;   temperatureNumber,0,0
;   temperatureSetpointCount,2,1
;   temperatureSetpointLayers,1,2,1
;   temperatureSetpointTemperatures,260,260,80
;   temperatureStabilizeAtStartup,1,1
;   temperatureHeatedBed,0,1
;   temperatureRelayBetweenLayers,0,0
;   temperatureRelayBetweenLoops,0,0
;   fanLayers,1,2
;   fanSpeeds,0,100
;   blipFanToFullPower,0
;   adjustSpeedForCooling,0
;   minSpeedLayerTime,15
;   minCoolingSpeedSlowdown,20
;   increaseFanForCooling,0
;   minFanLayerTime,45
;   maxCoolingFanSpeed,100
;   increaseFanForBridging,0
;   bridgingFanSpeed,100
;   use5D,1
;   relativeEdistances,0
;   allowEaxisZeroing,1
;   independentExtruderAxes,0
;   includeM10123,0
;   stickySupport,1
;   applyToolheadOffsets,0
;   gcodeXoffset,0
;   gcodeYoffset,0
;   gcodeZoffset,0
;   overrideMachineDefinition,1
;   machineTypeOverride,0
;   strokeXoverride,400
;   strokeYoverride,400
;   strokeZoverride,500
;   originOffsetXoverride,0
;   originOffsetYoverride,0
;   originOffsetZoverride,0
;   homeXdirOverride,-1
;   homeYdirOverride,-1
;   homeZdirOverride,-1
;   flipXoverride,1
;   flipYoverride,-1
;   flipZoverride,1
;   toolheadOffsets,0,0|0,0|0,0|0,0|0,0|0,0
;   overrideFirmwareConfiguration,1
;   firmwareTypeOverride,RepRap (Marlin/Repetier/Sprinter)
;   GPXconfigOverride,r2
;   baudRateOverride,115200
;   overridePrinterModels,0
;   printerModelsOverride
;   startingGcode,G28 ; home all axes,G1 Z5 F3000 ; lift,G1 X20 Y2 F1500 ; avoid binder clips,G1 Z0.2 F3000 ; get ready to prime,G92 E0 ; reset extrusion distance,G1 X120 E10 F600 ; prime nozzle,G1 X150 F5000 ; quick wipe
;   layerChangeGcode,
;   retractionGcode,
;   toolChangeGcode,
;   endingGcode,G28 X0 ; home x axis,M106 S0 ; turn off cooling fan,M104 S0 ; turn off extruder,M140 S0 ; turn off bed,M84 ; disable motors
;   exportFileFormat,gcode
;   celebration,0
;   celebrationSong,Random Song
;   postProcessing,,
;   defaultSpeed,4500
;   outlineUnderspeed,1
;   solidInfillUnderspeed,0.8
;   supportUnderspeed,0.8
;   rapidXYspeed,7998
;   rapidZspeed,1998
;   minBridgingArea,50
;   bridgingExtraInflation,0
;   bridgingExtrusionMultiplier,1
;   bridgingSpeedMultiplier,1
;   useFixedBridgingAngle,0
;   fixedBridgingAngle,0
;   applyBridgingToPerimeters,0
;   filamentDiameters,1.75|1.75|1.75|1.75|1.75|1.75
;   filamentPricesPerKg,46|46|46|46|46|46
;   filamentDensities,1.25|1.25|1.25|1.25|1.25|1.25
;   useMinPrintHeight,0
;   minPrintHeight,31.01
;   useMaxPrintHeight,0
;   maxPrintHeight,32.29
;   useDiaphragm,0
;   diaphragmLayerInterval,20
;   robustSlicing,1
;   mergeAllIntoSolid,0
;   onlyRetractWhenCrossingOutline,0
;   retractBetweenLayers,1
;   useRetractionMinTravel,1
;   retractionMinTravel,2
;   retractWhileWiping,1
;   onlyWipeOutlines,1
;   avoidCrossingOutline,1
;   maxMovementDetourFactor,3
;   toolChangeRetractionDistance,12
;   toolChangeExtraRestartDistance,-0.5
;   toolChangeRetractionSpeed,600
;   externalThinWallType,0
;   internalThinWallType,2
;   thinWallAllowedOverlapPercentage,20
;   singleExtrusionMinLength,1
;   singleExtrusionMinPrintingWidthPercentage,50
;   singleExtrusionMaxPrintingWidthPercentage,200
;   singleExtrusionEndpointExtension,0.2
;   horizontalSizeCompensation,0
G90
M82
M106 S0
M140 S80
M190 S80
M104 S260 T0
M109 S260 T0
G28 ; home all axes
G1 Z5 F3000 ; lift
G1 X20 Y2 F1500 ; avoid binder clips
G1 Z0.2 F3000 ; get ready to prime
G92 E0 ; reset extrusion distance
G1 X120 E10 F600 ; prime nozzle
G1 X150 F5000 ; quick wipe
G92 E0
G1 E-1.5000 F2100
G1 Z0.220 F1998
; process Process1
; layer 1, Z = 0.220
T0
; tool H0.220 W0.960
; skirt
G1 X31.529 Y19.501 F7998
G1 E0.0000 F630
G92 E0
G1 X31.713 Y19.226 E0.0291 F1800
G1 X33.088 Y17.851 E0.1998
G1 X33.363 Y17.668 E0.2288
G1 X33.853 Y17.465 E0.2753
G1 X34.177 Y17.400 E0.3044
G1 X108.707 Y17.400 E6.8486
G1 X109.032 Y17.465 E6.8777
G1 X109.521 Y17.668 E6.9242
G1 X109.796 Y17.851 E6.9533
G1 X111.171 Y19.226 E7.1240
G1 X111.355 Y19.501 E7.1530
G1 X111.558 Y19.991 E7.1996
G1 X111.622 Y20.315 E7.2286
G1 X111.622 Y55.534 E10.3210
G1 X111.656 Y56.325 E10.3905
G1 X111.750 Y57.063 E10.4559
G1 X111.907 Y57.791 E10.5213
G1 X112.126 Y58.504 E10.5867
G1 X112.403 Y59.194 E10.6520
G1 X112.735 Y59.852 E10.7168
G1 X113.126 Y60.487 E10.7823
G1 X113.569 Y61.087 E10.8477
G1 X114.061 Y61.646 E10.9131
G1 X114.631 Y62.193 E10.9825
G1 X126.498 Y72.624 E12.3698
G1 X126.513 Y72.637 E12.3716
G1 X126.535 Y72.658 E12.3742
G1 X126.548 Y72.670 E12.3758
G1 X127.275 Y73.369 E12.4643
G1 X127.301 Y73.395 E12.4676
G1 X127.342 Y73.438 E12.4728
G1 X127.367 Y73.466 E12.4761
G1 X128.046 Y74.246 E12.5669
G1 X128.070 Y74.275 E12.5702
G1 X128.108 Y74.322 E12.5755
G1 X128.130 Y74.352 E12.5788
G1 X128.738 Y75.190 E12.6696
G1 X128.759 Y75.220 E12.6729
G1 X128.792 Y75.270 E12.6781
G1 X128.812 Y75.302 E12.6815
G1 X129.342 Y76.192 E12.7724
G1 X129.361 Y76.224 E12.7757
G1 X129.389 Y76.277 E12.7809
G1 X129.406 Y76.311 E12.7842
G1 X129.854 Y77.243 E12.8751
G1 X129.870 Y77.278 E12.8784
G1 X129.894 Y77.333 E12.8837
G1 X129.907 Y77.368 E12.8870
G1 X130.271 Y78.336 E12.9778
G1 X130.283 Y78.371 E12.9811
G1 X130.301 Y78.428 E12.9863
G1 X130.312 Y78.465 E12.9897
G1 X130.588 Y79.463 E13.0806
G1 X130.597 Y79.499 E13.0838
G1 X130.610 Y79.557 E13.0891
G1 X130.618 Y79.594 E13.0924
G1 X130.803 Y80.612 E13.1833
G1 X130.809 Y80.649 E13.1866
G1 X130.817 Y80.709 E13.1918
G1 X130.821 Y80.746 E13.1952
G1 X130.915 Y81.777 E13.2861
G1 X130.917 Y81.815 E13.2894
G1 X130.920 Y81.875 E13.2946
G1 X130.921 Y81.912 E13.2979
G1 X130.922 Y82.947 E13.3888
G1 X130.921 Y82.985 E13.3921
G1 X130.918 Y83.045 E13.3974
G1 X130.916 Y83.082 E13.4007
G1 X130.825 Y84.113 E13.4915
G1 X130.820 Y84.150 E13.4948
G1 X130.812 Y84.210 E13.5001
G1 X130.807 Y84.247 E13.5034
G1 X130.624 Y85.265 E13.5943
G1 X130.616 Y85.302 E13.5976
G1 X130.603 Y85.361 E13.6028
G1 X130.594 Y85.397 E13.6061
G1 X130.320 Y86.395 E13.6970
G1 X130.310 Y86.430 E13.7002
G1 X130.292 Y86.487 E13.7054
G1 X130.279 Y86.523 E13.7088
G1 X129.917 Y87.493 E13.7997
G1 X129.904 Y87.528 E13.8030
G1 X129.880 Y87.583 E13.8082
G1 X129.865 Y87.618 E13.8116
G1 X129.418 Y88.551 E13.9025
G1 X129.401 Y88.585 E13.9058
G1 X129.373 Y88.638 E13.9111
G1 X129.354 Y88.671 E13.9143
G1 X128.826 Y89.560 E14.0052
G1 X128.806 Y89.592 E14.0085
G1 X128.773 Y89.642 E14.0138
G1 X128.752 Y89.673 E14.0171
G1 X128.146 Y90.513 E14.1079
G1 X128.123 Y90.543 E14.1113
G1 X128.086 Y90.590 E14.1165
G1 X128.062 Y90.619 E14.1198
G1 X127.377 Y91.409 E14.2116
G1 X127.352 Y91.437 E14.2150
G1 X127.310 Y91.481 E14.2203
G1 X127.283 Y91.508 E14.2236
G1 X126.555 Y92.208 E14.3123
G1 X126.541 Y92.221 E14.3140
G1 X126.519 Y92.241 E14.3166
G1 X126.505 Y92.253 E14.3182
G1 X100.303 Y115.286 E17.3815
G1 X100.296 Y115.292 E17.3823
G1 X100.285 Y115.302 E17.3836
G1 X100.279 Y115.307 E17.3844
G1 X98.917 Y116.454 E17.5407
G1 X98.902 Y116.466 E17.5423
G1 X98.880 Y116.483 E17.5448
G1 X98.867 Y116.494 E17.5463
G1 X97.421 Y117.610 E17.7066
G1 X97.407 Y117.621 E17.7082
G1 X97.384 Y117.638 E17.7108
G1 X97.369 Y117.649 E17.7124
G1 X95.908 Y118.678 E17.8693
G1 X95.893 Y118.688 E17.8709
G1 X95.870 Y118.704 E17.8733
G1 X95.855 Y118.714 E17.8749
G1 X94.336 Y119.692 E18.0336
G1 X94.320 Y119.701 E18.0352
G1 X94.296 Y119.716 E18.0377
G1 X94.280 Y119.726 E18.0392
G1 X92.721 Y120.637 E18.1979
G1 X92.705 Y120.646 E18.1995
G1 X92.680 Y120.660 E18.2020
G1 X92.664 Y120.669 E18.2036
G1 X91.067 Y121.513 E18.3622
G1 X91.051 Y121.521 E18.3638
G1 X91.025 Y121.534 E18.3663
G1 X91.009 Y121.542 E18.3679
G1 X89.377 Y122.317 E18.5266
G1 X89.360 Y122.325 E18.5281
G1 X89.334 Y122.336 E18.5307
G1 X89.318 Y122.343 E18.5322
G1 X87.654 Y123.048 E18.6908
G1 X87.638 Y123.054 E18.6924
G1 X87.612 Y123.065 E18.6949
G1 X87.594 Y123.072 E18.6965
G1 X85.901 Y123.704 E18.8552
G1 X85.884 Y123.711 E18.8568
G1 X85.857 Y123.720 E18.8593
G1 X85.840 Y123.726 E18.8609
G1 X85.622 Y123.797 E18.8810
G1 X85.622 Y130.646 E19.4824
G1 X85.366 Y131.264 E19.5411
G1 X84.601 Y132.029 E19.6362
G1 X83.983 Y132.285 E19.6949
G1 X80.501 Y132.285 E20.0007
G1 X79.883 Y132.029 E20.0593
G1 X79.118 Y131.264 E20.1544
G1 X78.862 Y130.646 E20.2131
G1 X78.862 Y126.154 E20.6075
G1 X78.048 Y125.653 E20.6914
G1 X77.028 Y125.806 E20.7821
G1 X77.010 Y125.809 E20.7836
G1 X76.981 Y125.812 E20.7862
G1 X76.962 Y125.815 E20.7879
G1 X75.108 Y126.011 E20.9516
G1 X75.089 Y126.012 E20.9532
G1 X75.060 Y126.015 E20.9558
G1 X75.041 Y126.016 E20.9574
G1 X73.180 Y126.130 E21.1212
G1 X73.162 Y126.131 E21.1227
G1 X73.133 Y126.132 E21.1253
G1 X73.113 Y126.133 E21.1270
G1 X71.248 Y126.164 E21.2908
G1 X71.230 Y126.164 E21.2924
G1 X71.200 Y126.164 E21.2950
G1 X71.182 Y126.164 E21.2967
G1 X69.318 Y126.113 E21.4604
G1 X69.300 Y126.112 E21.4620
G1 X69.270 Y126.111 E21.4646
G1 X69.251 Y126.110 E21.4662
G1 X67.391 Y125.976 E21.6300
G1 X67.373 Y125.975 E21.6316
G1 X67.343 Y125.972 E21.6342
G1 X67.325 Y125.970 E21.6358
G1 X65.473 Y125.755 E21.7996
G1 X65.455 Y125.753 E21.8012
G1 X65.425 Y125.749 E21.8038
G1 X65.406 Y125.746 E21.8054
G1 X64.660 Y125.626 E21.8718
G1 X64.022 Y126.264 E21.9510
G1 X64.022 Y130.646 E22.3358
G1 X63.766 Y131.264 E22.3945
G1 X63.001 Y132.029 E22.4896
G1 X62.383 Y132.285 E22.5483
G1 X58.901 Y132.285 E22.8541
G1 X58.283 Y132.029 E22.9128
G1 X57.518 Y131.264 E23.0078
G1 X57.262 Y130.646 E23.0665
G1 X57.262 Y123.798 E23.6678
G1 X57.082 Y123.739 E23.6845
G1 X57.065 Y123.733 E23.6861
G1 X57.038 Y123.724 E23.6886
G1 X57.021 Y123.718 E23.6901
G1 X55.328 Y123.087 E23.8487
G1 X55.311 Y123.080 E23.8504
G1 X55.285 Y123.070 E23.8529
G1 X55.268 Y123.063 E23.8544
G1 X53.604 Y122.360 E24.0131
G1 X53.588 Y122.353 E24.0146
G1 X53.561 Y122.341 E24.0172
G1 X53.545 Y122.334 E24.0187
G1 X51.912 Y121.560 E24.1774
G1 X51.897 Y121.553 E24.1789
G1 X51.871 Y121.540 E24.1814
G1 X51.855 Y121.531 E24.1830
G1 X50.256 Y120.689 E24.3417
G1 X50.240 Y120.680 E24.3433
G1 X50.215 Y120.666 E24.3459
G1 X50.199 Y120.657 E24.3474
G1 X48.639 Y119.747 E24.5061
G1 X48.623 Y119.737 E24.5077
G1 X48.598 Y119.722 E24.5102
G1 X48.584 Y119.713 E24.5117
G1 X47.063 Y118.737 E24.6704
G1 X47.049 Y118.727 E24.6719
G1 X47.025 Y118.711 E24.6744
G1 X47.010 Y118.701 E24.6760
G1 X45.532 Y117.660 E24.8347
G1 X45.517 Y117.650 E24.8363
G1 X45.494 Y117.632 E24.8389
G1 X45.480 Y117.622 E24.8404
G1 X44.033 Y116.507 E25.0008
G1 X44.019 Y116.496 E25.0024
G1 X43.997 Y116.478 E25.0049
G1 X43.983 Y116.466 E25.0065
G1 X42.620 Y115.320 E25.1629
G1 X42.613 Y115.313 E25.1637
G1 X42.602 Y115.304 E25.1650
G1 X42.596 Y115.299 E25.1657
G1 X16.386 Y92.260 E28.2297
G1 X16.372 Y92.248 E28.2314
G1 X16.350 Y92.228 E28.2340
G1 X16.337 Y92.215 E28.2357
G1 X15.609 Y91.515 E28.3243
G1 X15.583 Y91.489 E28.3276
G1 X15.542 Y91.446 E28.3328
G1 X15.517 Y91.419 E28.3360
G1 X14.831 Y90.630 E28.4278
G1 X14.806 Y90.601 E28.4311
G1 X14.769 Y90.554 E28.4365
G1 X14.746 Y90.523 E28.4398
G1 X14.139 Y89.684 E28.5307
G1 X14.118 Y89.653 E28.5340
G1 X14.085 Y89.603 E28.5393
G1 X14.065 Y89.571 E28.5426
G1 X13.541 Y88.691 E28.6325
G1 X13.523 Y88.659 E28.6357
G1 X13.495 Y88.607 E28.6409
G1 X13.478 Y88.574 E28.6442
G1 X13.030 Y87.641 E28.7351
G1 X13.014 Y87.607 E28.7384
G1 X12.991 Y87.552 E28.7436
G1 X12.977 Y87.517 E28.7469
G1 X12.614 Y86.548 E28.8378
G1 X12.601 Y86.513 E28.8411
G1 X12.583 Y86.456 E28.8463
G1 X12.572 Y86.420 E28.8496
G1 X12.296 Y85.422 E28.9405
G1 X12.287 Y85.385 E28.9438
G1 X12.274 Y85.327 E28.9491
G1 X12.266 Y85.290 E28.9524
G1 X12.081 Y84.272 E29.0432
G1 X12.075 Y84.235 E29.0465
G1 X12.067 Y84.176 E29.0518
G1 X12.063 Y84.138 E29.0551
G1 X11.970 Y83.108 E29.1460
G1 X11.967 Y83.070 E29.1493
G1 X11.964 Y83.010 E29.1546
G1 X11.963 Y82.973 E29.1579
G1 X11.962 Y81.938 E29.2487
G1 X11.963 Y81.900 E29.2520
G1 X11.966 Y81.840 E29.2573
G1 X11.968 Y81.803 E29.2606
G1 X12.060 Y80.772 E29.3515
G1 X12.064 Y80.734 E29.3548
G1 X12.072 Y80.675 E29.3600
G1 X12.078 Y80.638 E29.3633
G1 X12.261 Y79.619 E29.4542
G1 X12.268 Y79.582 E29.4575
G1 X12.282 Y79.524 E29.4628
G1 X12.291 Y79.488 E29.4661
G1 X12.564 Y78.490 E29.5569
G1 X12.575 Y78.454 E29.5602
G1 X12.593 Y78.397 E29.5655
G1 X12.605 Y78.361 E29.5688
G1 X12.967 Y77.391 E29.6597
G1 X12.981 Y77.356 E29.6630
G1 X13.004 Y77.301 E29.6682
G1 X13.020 Y77.267 E29.6715
G1 X13.466 Y76.333 E29.7624
G1 X13.483 Y76.299 E29.7657
G1 X13.512 Y76.247 E29.7710
G1 X13.530 Y76.214 E29.7743
G1 X14.058 Y75.324 E29.8651
G1 X14.078 Y75.292 E29.8684
G1 X14.111 Y75.242 E29.8737
G1 X14.132 Y75.211 E29.8770
G1 X14.745 Y74.363 E29.9689
G1 X14.768 Y74.333 E29.9722
G1 X14.805 Y74.285 E29.9775
G1 X14.829 Y74.256 E29.9808
G1 X15.508 Y73.475 E30.0717
G1 X15.534 Y73.447 E30.0750
G1 X15.575 Y73.404 E30.0803
G1 X15.601 Y73.377 E30.0836
G1 X16.329 Y72.677 E30.1722
G1 X16.343 Y72.664 E30.1739
G1 X16.365 Y72.644 E30.1766
G1 X16.379 Y72.631 E30.1782
G1 X28.247 Y62.198 E31.5657
G1 X28.814 Y61.656 E31.6345
G1 X29.307 Y61.097 E31.7000
G1 X29.750 Y60.499 E31.7654
G1 X30.141 Y59.866 E31.8307
G1 X30.477 Y59.202 E31.8961
G1 X30.759 Y58.503 E31.9623
G1 X30.977 Y57.791 E32.0276
G1 X31.134 Y57.063 E32.0930
G1 X31.229 Y56.324 E32.1584
