; G-Code generated by Simplify3D(R) Version 4.0.0
; Feb 26, 2021 at 4:33:50 PM
; Settings Summary
;   processName,Process1
;   applyToModels,extrudeur guide moteur
;   profileName,BOX 3.0 (modified)
;   profileVersion,2021-02-08 22:01:06
;   baseProfile,
;   printMaterial,
;   printQuality,
;   printExtruders,
;   extruderName,Primary Extruder
;   extruderToolheadNumber,0
;   extruderDiameter,0.4
;   extruderAutoWidth,1
;   extruderWidth,0.48
;   extrusionMultiplier,1
;   extruderUseRetract,1
;   extruderRetractionDistance,1.5
;   extruderExtraRestartDistance,0
;   extruderRetractionZLift,0
;   extruderRetractionSpeed,2100
;   extruderUseCoasting,0
;   extruderCoastingDistance,0.2
;   extruderUseWipe,0
;   extruderWipeDistance,5
;   primaryExtruder,0
;   layerHeight,0.2
;   topSolidLayers,3
;   bottomSolidLayers,3
;   perimeterOutlines,3
;   printPerimetersInsideOut,1
;   startPointOption,2
;   startPointOriginX,0
;   startPointOriginY,0
;   sequentialIslands,0
;   spiralVaseMode,0
;   firstLayerHeightPercentage,110
;   firstLayerWidthPercentage,200
;   firstLayerUnderspeed,0.4
;   useRaft,0
;   raftExtruder,0
;   raftTopLayers,2
;   raftBaseLayers,2
;   raftOffset,3
;   raftSeparationDistance,0.42
;   raftTopInfill,100
;   aboveRaftSpeedMultiplier,0.3
;   useSkirt,1
;   skirtExtruder,0
;   skirtLayers,1
;   skirtOutlines,4
;   skirtOffset,0.5
;   usePrimePillar,0
;   primePillarExtruder,999
;   primePillarWidth,12
;   primePillarLocation,7
;   primePillarSpeedMultiplier,1
;   useOozeShield,0
;   oozeShieldExtruder,999
;   oozeShieldOffset,2
;   oozeShieldOutlines,1
;   oozeShieldSidewallShape,1
;   oozeShieldSidewallAngle,30
;   oozeShieldSpeedMultiplier,1
;   infillExtruder,0
;   internalInfillPattern,Rectilinear
;   externalInfillPattern,Rectilinear
;   infillPercentage,20
;   outlineOverlapPercentage,20
;   infillExtrusionWidthPercentage,100
;   minInfillLength,5
;   infillLayerInterval,1
;   internalInfillAngles,45,-45
;   overlapInternalInfillAngles,0
;   externalInfillAngles,45,-45
;   generateSupport,0
;   supportExtruder,0
;   supportInfillPercentage,60
;   supportExtraInflation,0
;   supportBaseLayers,0
;   denseSupportExtruder,0
;   denseSupportLayers,0
;   denseSupportInfillPercentage,70
;   supportLayerInterval,2
;   supportHorizontalPartOffset,0.42
;   supportUpperSeparationLayers,1
;   supportLowerSeparationLayers,1
;   supportType,0
;   supportGridSpacing,4
;   maxOverhangAngle,45
;   supportAngles,0
;   temperatureName,Primary Extruder,Heated Bed
;   temperatureNumber,0,0
;   temperatureSetpointCount,2,1
;   temperatureSetpointLayers,1,2,1
;   temperatureSetpointTemperatures,260,260,80
;   temperatureStabilizeAtStartup,1,1
;   temperatureHeatedBed,0,1
;   temperatureRelayBetweenLayers,0,0
;   temperatureRelayBetweenLoops,0,0
;   fanLayers,1,2
;   fanSpeeds,0,100
;   blipFanToFullPower,0
;   adjustSpeedForCooling,0
;   minSpeedLayerTime,15
;   minCoolingSpeedSlowdown,20
;   increaseFanForCooling,0
;   minFanLayerTime,45
;   maxCoolingFanSpeed,100
;   increaseFanForBridging,0
;   bridgingFanSpeed,100
;   use5D,1
;   relativeEdistances,0
;   allowEaxisZeroing,1
;   independentExtruderAxes,0
;   includeM10123,0
;   stickySupport,1
;   applyToolheadOffsets,0
;   gcodeXoffset,0
;   gcodeYoffset,0
;   gcodeZoffset,0
;   overrideMachineDefinition,1
;   machineTypeOverride,0
;   strokeXoverride,400
;   strokeYoverride,400
;   strokeZoverride,500
;   originOffsetXoverride,0
;   originOffsetYoverride,0
;   originOffsetZoverride,0
;   homeXdirOverride,-1
;   homeYdirOverride,-1
;   homeZdirOverride,-1
;   flipXoverride,1
;   flipYoverride,-1
;   flipZoverride,1
;   toolheadOffsets,0,0|0,0|0,0|0,0|0,0|0,0
;   overrideFirmwareConfiguration,1
;   firmwareTypeOverride,RepRap (Marlin/Repetier/Sprinter)
;   GPXconfigOverride,r2
;   baudRateOverride,115200
;   overridePrinterModels,0
;   printerModelsOverride
;   startingGcode,G28 ; home all axes,G1 Z5 F3000 ; lift,G1 X20 Y2 F1500 ; avoid binder clips,G1 Z0.2 F3000 ; get ready to prime,G92 E0 ; reset extrusion distance,G1 X120 E10 F600 ; prime nozzle,G1 X150 F5000 ; quick wipe
;   layerChangeGcode,
;   retractionGcode,
;   toolChangeGcode,
;   endingGcode,G28 X0 ; home x axis,M106 S0 ; turn off cooling fan,M104 S0 ; turn off extruder,M140 S0 ; turn off bed,M84 ; disable motors
;   exportFileFormat,gcode
;   celebration,0
;   celebrationSong,Random Song
;   postProcessing,,
;   defaultSpeed,4500
;   outlineUnderspeed,1
;   solidInfillUnderspeed,0.8
;   supportUnderspeed,0.8
;   rapidXYspeed,7998
;   rapidZspeed,1998
;   minBridgingArea,50
;   bridgingExtraInflation,0
;   bridgingExtrusionMultiplier,1
;   bridgingSpeedMultiplier,1
;   useFixedBridgingAngle,0
;   fixedBridgingAngle,0
;   applyBridgingToPerimeters,0
;   filamentDiameters,1.75|1.75|1.75|1.75|1.75|1.75
;   filamentPricesPerKg,46|46|46|46|46|46
;   filamentDensities,1.25|1.25|1.25|1.25|1.25|1.25
;   useMinPrintHeight,0
;   minPrintHeight,31.01
;   useMaxPrintHeight,0
;   maxPrintHeight,32.29
;   useDiaphragm,0
;   diaphragmLayerInterval,20
;   robustSlicing,1
;   mergeAllIntoSolid,0
;   onlyRetractWhenCrossingOutline,0
;   retractBetweenLayers,1
;   useRetractionMinTravel,1
;   retractionMinTravel,2
;   retractWhileWiping,1
;   onlyWipeOutlines,1
;   avoidCrossingOutline,1
;   maxMovementDetourFactor,3
;   toolChangeRetractionDistance,12
;   toolChangeExtraRestartDistance,-0.5
;   toolChangeRetractionSpeed,600
;   externalThinWallType,0
;   internalThinWallType,2
;   thinWallAllowedOverlapPercentage,20
;   singleExtrusionMinLength,1
;   singleExtrusionMinPrintingWidthPercentage,50
;   singleExtrusionMaxPrintingWidthPercentage,200
;   singleExtrusionEndpointExtension,0.2
;   horizontalSizeCompensation,0
G90
M82
M106 S0
M140 S80
M190 S80
M104 S260 T0
M109 S260 T0
G28 ; home all axes
G1 Z5 F3000 ; lift
G1 X20 Y2 F1500 ; avoid binder clips
G1 Z0.2 F3000 ; get ready to prime
G92 E0 ; reset extrusion distance
G1 X120 E10 F600 ; prime nozzle
G1 X150 F5000 ; quick wipe
G92 E0
G1 E-1.5000 F2100
G1 Z0.220 F1998
; process Process1
; layer 1, Z = 0.220
T0
; tool H0.220 W0.960
; skirt
G1 X43.885 Y32.570 F7998
G1 E0.0000 F630
G92 E0
G1 X43.896 Y32.560 E0.0013 F1800
G1 X43.902 Y32.555 E0.0020
G1 X45.293 Y31.385 E0.1615
G1 X45.307 Y31.374 E0.1632
G1 X45.330 Y31.355 E0.1657
G1 X45.344 Y31.344 E0.1673
G1 X46.805 Y30.220 E0.3292
G1 X46.819 Y30.209 E0.3308
G1 X46.843 Y30.191 E0.3333
G1 X46.858 Y30.180 E0.3350
G1 X48.368 Y29.120 E0.4970
G1 X48.384 Y29.109 E0.4987
G1 X48.408 Y29.093 E0.5012
G1 X48.423 Y29.083 E0.5028
G1 X49.977 Y28.090 E0.6648
G1 X49.993 Y28.080 E0.6664
G1 X50.018 Y28.065 E0.6689
G1 X50.034 Y28.056 E0.6706
G1 X51.630 Y27.131 E0.8325
G1 X51.646 Y27.122 E0.8341
G1 X51.671 Y27.108 E0.8367
G1 X51.688 Y27.099 E0.8383
G1 X53.323 Y26.245 E1.0003
G1 X53.340 Y26.237 E1.0020
G1 X53.366 Y26.224 E1.0046
G1 X53.382 Y26.216 E1.0061
G1 X55.053 Y25.435 E1.1681
G1 X55.070 Y25.427 E1.1697
G1 X55.097 Y25.415 E1.1723
G1 X55.113 Y25.408 E1.1739
G1 X56.817 Y24.700 E1.3358
G1 X56.834 Y24.693 E1.3375
G1 X56.861 Y24.683 E1.3400
G1 X56.878 Y24.676 E1.3416
G1 X58.611 Y24.044 E1.5036
G1 X58.629 Y24.037 E1.5053
G1 X58.657 Y24.028 E1.5078
G1 X58.674 Y24.022 E1.5094
G1 X60.432 Y23.466 E1.6714
G1 X60.450 Y23.461 E1.6730
G1 X60.478 Y23.452 E1.6755
G1 X60.496 Y23.447 E1.6772
G1 X62.277 Y22.968 E1.8392
G1 X62.295 Y22.964 E1.8408
G1 X62.324 Y22.957 E1.8434
G1 X62.341 Y22.953 E1.8450
G1 X64.142 Y22.552 E2.0069
G1 X64.160 Y22.548 E2.0085
G1 X64.188 Y22.542 E2.0111
G1 X64.206 Y22.539 E2.0127
G1 X66.023 Y22.217 E2.1747
G1 X66.041 Y22.214 E2.1763
G1 X66.070 Y22.210 E2.1789
G1 X66.088 Y22.207 E2.1805
G1 X67.917 Y21.965 E2.3424
G1 X67.934 Y21.963 E2.3440
G1 X67.964 Y21.960 E2.3466
G1 X67.982 Y21.958 E2.3482
G1 X69.820 Y21.796 E2.5102
G1 X69.838 Y21.794 E2.5119
G1 X69.868 Y21.793 E2.5144
G1 X69.886 Y21.792 E2.5160
G1 X71.728 Y21.710 E2.6780
G1 X71.746 Y21.709 E2.6795
G1 X71.776 Y21.709 E2.6821
G1 X71.794 Y21.709 E2.6838
G1 X73.659 Y21.708 E2.8475
G1 X73.678 Y21.708 E2.8492
G1 X73.708 Y21.709 E2.8518
G1 X73.726 Y21.709 E2.8534
G1 X75.549 Y21.789 E3.0136
G1 X75.568 Y21.790 E3.0153
G1 X75.597 Y21.792 E3.0178
G1 X75.614 Y21.793 E3.0194
G1 X77.452 Y21.953 E3.1813
G1 X77.470 Y21.955 E3.1830
G1 X77.500 Y21.958 E3.1855
G1 X77.517 Y21.960 E3.1871
G1 X79.346 Y22.201 E3.3491
G1 X79.364 Y22.203 E3.3507
G1 X79.393 Y22.208 E3.3532
G1 X79.412 Y22.211 E3.3549
G1 X81.228 Y22.531 E3.5169
G1 X81.246 Y22.534 E3.5185
G1 X81.275 Y22.540 E3.5210
G1 X81.293 Y22.544 E3.5226
G1 X83.094 Y22.943 E3.6846
G1 X83.112 Y22.947 E3.6863
G1 X83.141 Y22.954 E3.6888
G1 X83.158 Y22.958 E3.6904
G1 X84.940 Y23.436 E3.8524
G1 X84.958 Y23.441 E3.8540
G1 X84.986 Y23.449 E3.8566
G1 X85.003 Y23.454 E3.8582
G1 X86.763 Y24.009 E4.0202
G1 X86.780 Y24.015 E4.0218
G1 X86.808 Y24.024 E4.0243
G1 X86.825 Y24.030 E4.0259
G1 X88.558 Y24.661 E4.1879
G1 X88.576 Y24.668 E4.1895
G1 X88.603 Y24.678 E4.1921
G1 X88.620 Y24.685 E4.1937
G1 X90.324 Y25.391 E4.3557
G1 X90.341 Y25.398 E4.3573
G1 X90.368 Y25.410 E4.3599
G1 X90.384 Y25.418 E4.3615
G1 X92.056 Y26.198 E4.5235
G1 X92.073 Y26.206 E4.5251
G1 X92.099 Y26.219 E4.5277
G1 X92.115 Y26.227 E4.5293
G1 X93.751 Y27.079 E4.6912
G1 X93.767 Y27.087 E4.6928
G1 X93.792 Y27.101 E4.6953
G1 X93.809 Y27.111 E4.6970
G1 X95.406 Y28.034 E4.8590
G1 X95.422 Y28.043 E4.8606
G1 X95.447 Y28.058 E4.8632
G1 X95.463 Y28.068 E4.8648
G1 X97.018 Y29.060 E5.0268
G1 X97.033 Y29.070 E5.0284
G1 X97.058 Y29.086 E5.0309
G1 X97.073 Y29.097 E5.0326
G1 X98.584 Y30.155 E5.1945
G1 X98.599 Y30.166 E5.1962
G1 X98.622 Y30.184 E5.1987
G1 X98.637 Y30.195 E5.2003
G1 X100.099 Y31.318 E5.3623
G1 X100.114 Y31.329 E5.3639
G1 X100.136 Y31.348 E5.3664
G1 X100.151 Y31.359 E5.3681
G1 X101.558 Y32.541 E5.5294
G1 X101.565 Y32.547 E5.5302
G1 X101.576 Y32.557 E5.5315
G1 X101.583 Y32.563 E5.5324
G1 X127.793 Y55.602 E8.5965
G1 X127.807 Y55.614 E8.5981
G1 X127.828 Y55.633 E8.6006
G1 X127.840 Y55.645 E8.6021
G1 X128.533 Y56.308 E8.6863
G1 X128.558 Y56.333 E8.6894
G1 X128.597 Y56.374 E8.6944
G1 X128.621 Y56.400 E8.6974
G1 X129.271 Y57.136 E8.7837
G1 X129.294 Y57.163 E8.7868
G1 X129.330 Y57.208 E8.7918
G1 X129.352 Y57.236 E8.7950
G1 X129.938 Y58.026 E8.8813
G1 X129.958 Y58.055 E8.8845
G1 X129.990 Y58.102 E8.8895
G1 X130.010 Y58.132 E8.8926
G1 X130.526 Y58.969 E8.9789
G1 X130.544 Y58.999 E8.9821
G1 X130.572 Y59.049 E8.9871
G1 X130.589 Y59.081 E8.9902
G1 X131.033 Y59.958 E9.0766
G1 X131.048 Y59.991 E9.0797
G1 X131.072 Y60.042 E9.0847
G1 X131.086 Y60.075 E9.0878
G1 X131.453 Y60.987 E9.1741
G1 X131.466 Y61.020 E9.1772
G1 X131.485 Y61.073 E9.1822
G1 X131.496 Y61.108 E9.1854
G1 X131.785 Y62.048 E9.2717
G1 X131.795 Y62.082 E9.2749
G1 X131.810 Y62.137 E9.2799
G1 X131.818 Y62.172 E9.2830
G1 X132.026 Y63.132 E9.3693
G1 X132.033 Y63.167 E9.3724
G1 X132.042 Y63.223 E9.3774
G1 X132.048 Y63.259 E9.3806
G1 X132.174 Y64.234 E9.4670
G1 X132.177 Y64.270 E9.4701
G1 X132.182 Y64.326 E9.4751
G1 X132.185 Y64.362 E9.4782
G1 X132.227 Y65.344 E9.5645
G1 X132.228 Y65.380 E9.5677
G1 X132.228 Y65.437 E9.5727
G1 X132.227 Y65.473 E9.5758
G1 X132.187 Y66.455 E9.6622
G1 X132.184 Y66.491 E9.6653
G1 X132.180 Y66.548 E9.6703
G1 X132.176 Y66.583 E9.6734
G1 X132.052 Y67.558 E9.7598
G1 X132.047 Y67.594 E9.7629
G1 X132.037 Y67.650 E9.7679
G1 X132.030 Y67.685 E9.7710
G1 X131.824 Y68.646 E9.8574
G1 X131.816 Y68.681 E9.8605
G1 X131.801 Y68.736 E9.8655
G1 X131.792 Y68.770 E9.8686
G1 X131.504 Y69.710 E9.9550
G1 X131.493 Y69.744 E9.9581
G1 X131.474 Y69.798 E9.9631
G1 X131.462 Y69.832 E9.9662
G1 X131.096 Y70.744 E10.0526
G1 X131.082 Y70.777 E10.0557
G1 X131.058 Y70.829 E10.0607
G1 X131.043 Y70.861 E10.0638
G1 X130.601 Y71.739 E10.1501
G1 X130.584 Y71.771 E10.1533
G1 X130.556 Y71.820 E10.1583
G1 X130.538 Y71.851 E10.1614
G1 X130.023 Y72.689 E10.2477
G1 X130.004 Y72.718 E10.2508
G1 X129.973 Y72.765 E10.2558
G1 X129.952 Y72.795 E10.2590
G1 X129.367 Y73.586 E10.3454
G1 X129.345 Y73.614 E10.3485
G1 X129.310 Y73.658 E10.3535
G1 X129.287 Y73.686 E10.3566
G1 X128.637 Y74.424 E10.4429
G1 X128.613 Y74.450 E10.4461
G1 X128.574 Y74.491 E10.4511
G1 X128.549 Y74.517 E10.4542
G1 X127.849 Y75.188 E10.5393
G1 X127.836 Y75.200 E10.5409
G1 X127.814 Y75.220 E10.5435
G1 X127.801 Y75.232 E10.5451
G1 X101.599 Y98.265 E13.6084
G1 X101.591 Y98.272 E13.6093
G1 X101.580 Y98.281 E13.6105
G1 X101.573 Y98.286 E13.6113
G1 X100.183 Y99.456 E13.7708
G1 X100.169 Y99.468 E13.7724
G1 X100.146 Y99.486 E13.7750
G1 X100.132 Y99.497 E13.7765
G1 X98.671 Y100.622 E13.9385
G1 X98.656 Y100.632 E13.9400
G1 X98.633 Y100.650 E13.9426
G1 X98.618 Y100.661 E13.9443
G1 X97.108 Y101.721 E14.1062
G1 X97.093 Y101.732 E14.1079
G1 X97.069 Y101.748 E14.1104
G1 X97.053 Y101.758 E14.1120
G1 X95.499 Y102.751 E14.2740
G1 X95.483 Y102.761 E14.2756
G1 X95.458 Y102.776 E14.2782
G1 X95.442 Y102.786 E14.2798
G1 X93.846 Y103.710 E14.4418
G1 X93.830 Y103.719 E14.4434
G1 X93.805 Y103.733 E14.4459
G1 X93.788 Y103.742 E14.4476
G1 X92.153 Y104.596 E14.6095
G1 X92.137 Y104.604 E14.6111
G1 X92.111 Y104.617 E14.6137
G1 X92.094 Y104.625 E14.6153
G1 X90.423 Y105.406 E14.7773
G1 X90.406 Y105.414 E14.7789
G1 X90.379 Y105.426 E14.7815
G1 X90.363 Y105.433 E14.7831
G1 X88.659 Y106.141 E14.9451
G1 X88.642 Y106.148 E14.9467
G1 X88.615 Y106.158 E14.9493
G1 X88.598 Y106.165 E14.9509
G1 X86.865 Y106.798 E15.1129
G1 X86.847 Y106.804 E15.1145
G1 X86.820 Y106.813 E15.1171
G1 X86.802 Y106.819 E15.1187
G1 X85.044 Y107.375 E15.2806
G1 X85.026 Y107.381 E15.2822
G1 X84.998 Y107.389 E15.2848
G1 X84.980 Y107.394 E15.2864
G1 X83.199 Y107.873 E15.4484
G1 X83.180 Y107.878 E15.4501
G1 X83.152 Y107.885 E15.4526
G1 X83.135 Y107.889 E15.4542
G1 X81.335 Y108.289 E15.6161
G1 X81.317 Y108.293 E15.6177
G1 X81.289 Y108.299 E15.6202
G1 X81.270 Y108.302 E15.6219
G1 X79.453 Y108.624 E15.7839
G1 X79.435 Y108.627 E15.7856
G1 X79.406 Y108.632 E15.7881
G1 X79.388 Y108.634 E15.7897
G1 X77.559 Y108.876 E15.9517
G1 X77.541 Y108.878 E15.9533
G1 X77.512 Y108.882 E15.9559
G1 X77.494 Y108.883 E15.9575
G1 X75.656 Y109.045 E16.1195
G1 X75.638 Y109.047 E16.1211
G1 X75.608 Y109.049 E16.1237
G1 X75.590 Y109.050 E16.1253
G1 X73.747 Y109.131 E16.2872
G1 X73.730 Y109.132 E16.2888
G1 X73.700 Y109.132 E16.2914
G1 X73.682 Y109.133 E16.2930
G1 X71.816 Y109.133 E16.4568
G1 X71.798 Y109.133 E16.4584
G1 X71.768 Y109.133 E16.4610
G1 X71.750 Y109.132 E16.4627
G1 X69.927 Y109.052 E16.6229
G1 X69.908 Y109.051 E16.6245
G1 X69.879 Y109.049 E16.6271
G1 X69.862 Y109.048 E16.6286
G1 X68.024 Y108.888 E16.7906
G1 X68.005 Y108.886 E16.7922
G1 X67.976 Y108.883 E16.7948
G1 X67.958 Y108.881 E16.7964
G1 X66.130 Y108.640 E16.9583
G1 X66.111 Y108.638 E16.9599
G1 X66.082 Y108.633 E16.9625
G1 X66.064 Y108.630 E16.9641
G1 X64.248 Y108.310 E17.1261
G1 X64.229 Y108.307 E17.1277
G1 X64.201 Y108.301 E17.1303
G1 X64.183 Y108.298 E17.1319
G1 X62.382 Y107.899 E17.2939
G1 X62.364 Y107.894 E17.2955
G1 X62.335 Y107.887 E17.2981
G1 X62.318 Y107.883 E17.2997
G1 X60.536 Y107.406 E17.4616
G1 X60.518 Y107.401 E17.4633
G1 X60.490 Y107.392 E17.4658
G1 X60.473 Y107.387 E17.4674
G1 X58.713 Y106.832 E17.6294
G1 X58.696 Y106.827 E17.6310
G1 X58.668 Y106.817 E17.6336
G1 X58.651 Y106.811 E17.6352
G1 X56.917 Y106.180 E17.7972
G1 X56.900 Y106.174 E17.7988
G1 X56.873 Y106.163 E17.8014
G1 X56.856 Y106.156 E17.8030
G1 X55.152 Y105.450 E17.9649
G1 X55.135 Y105.443 E17.9665
G1 X55.108 Y105.431 E17.9691
G1 X55.091 Y105.423 E17.9707
G1 X53.420 Y104.643 E18.1327
G1 X53.403 Y104.635 E18.1344
G1 X53.377 Y104.622 E18.1369
G1 X53.360 Y104.614 E18.1385
G1 X51.725 Y103.762 E18.3005
