; G-Code generated by Simplify3D(R) Version 4.0.0
; Feb 25, 2021 at 7:21:02 PM
; Settings Summary
;   processName,Process1
;   applyToModels,support ecrou
;   profileName,BOX 3.0 (modified)
;   profileVersion,2021-02-08 22:01:06
;   baseProfile,
;   printMaterial,
;   printQuality,
;   printExtruders,
;   extruderName,Primary Extruder
;   extruderToolheadNumber,0
;   extruderDiameter,0.4
;   extruderAutoWidth,1
;   extruderWidth,0.48
;   extrusionMultiplier,1
;   extruderUseRetract,1
;   extruderRetractionDistance,1.5
;   extruderExtraRestartDistance,0
;   extruderRetractionZLift,0
;   extruderRetractionSpeed,2100
;   extruderUseCoasting,0
;   extruderCoastingDistance,0.2
;   extruderUseWipe,0
;   extruderWipeDistance,5
;   primaryExtruder,0
;   layerHeight,0.2
;   topSolidLayers,3
;   bottomSolidLayers,3
;   perimeterOutlines,3
;   printPerimetersInsideOut,1
;   startPointOption,2
;   startPointOriginX,0
;   startPointOriginY,0
;   sequentialIslands,0
;   spiralVaseMode,0
;   firstLayerHeightPercentage,110
;   firstLayerWidthPercentage,200
;   firstLayerUnderspeed,0.4
;   useRaft,0
;   raftExtruder,0
;   raftTopLayers,2
;   raftBaseLayers,2
;   raftOffset,3
;   raftSeparationDistance,0.42
;   raftTopInfill,100
;   aboveRaftSpeedMultiplier,0.3
;   useSkirt,1
;   skirtExtruder,0
;   skirtLayers,1
;   skirtOutlines,4
;   skirtOffset,0.5
;   usePrimePillar,0
;   primePillarExtruder,999
;   primePillarWidth,12
;   primePillarLocation,7
;   primePillarSpeedMultiplier,1
;   useOozeShield,0
;   oozeShieldExtruder,999
;   oozeShieldOffset,2
;   oozeShieldOutlines,1
;   oozeShieldSidewallShape,1
;   oozeShieldSidewallAngle,30
;   oozeShieldSpeedMultiplier,1
;   infillExtruder,0
;   internalInfillPattern,Rectilinear
;   externalInfillPattern,Rectilinear
;   infillPercentage,20
;   outlineOverlapPercentage,20
;   infillExtrusionWidthPercentage,100
;   minInfillLength,5
;   infillLayerInterval,1
;   internalInfillAngles,45,-45
;   overlapInternalInfillAngles,0
;   externalInfillAngles,45,-45
;   generateSupport,0
;   supportExtruder,0
;   supportInfillPercentage,60
;   supportExtraInflation,0
;   supportBaseLayers,0
;   denseSupportExtruder,0
;   denseSupportLayers,0
;   denseSupportInfillPercentage,70
;   supportLayerInterval,2
;   supportHorizontalPartOffset,0.42
;   supportUpperSeparationLayers,1
;   supportLowerSeparationLayers,1
;   supportType,0
;   supportGridSpacing,4
;   maxOverhangAngle,45
;   supportAngles,0
;   temperatureName,Primary Extruder,Heated Bed
;   temperatureNumber,0,0
;   temperatureSetpointCount,2,1
;   temperatureSetpointLayers,1,2,1
;   temperatureSetpointTemperatures,260,260,80
;   temperatureStabilizeAtStartup,1,1
;   temperatureHeatedBed,0,1
;   temperatureRelayBetweenLayers,0,0
;   temperatureRelayBetweenLoops,0,0
;   fanLayers,1,2
;   fanSpeeds,0,100
;   blipFanToFullPower,0
;   adjustSpeedForCooling,0
;   minSpeedLayerTime,15
;   minCoolingSpeedSlowdown,20
;   increaseFanForCooling,0
;   minFanLayerTime,45
;   maxCoolingFanSpeed,100
;   increaseFanForBridging,0
;   bridgingFanSpeed,100
;   use5D,1
;   relativeEdistances,0
;   allowEaxisZeroing,1
;   independentExtruderAxes,0
;   includeM10123,0
;   stickySupport,1
;   applyToolheadOffsets,0
;   gcodeXoffset,0
;   gcodeYoffset,0
;   gcodeZoffset,0
;   overrideMachineDefinition,1
;   machineTypeOverride,0
;   strokeXoverride,400
;   strokeYoverride,400
;   strokeZoverride,500
;   originOffsetXoverride,0
;   originOffsetYoverride,0
;   originOffsetZoverride,0
;   homeXdirOverride,-1
;   homeYdirOverride,-1
;   homeZdirOverride,-1
;   flipXoverride,1
;   flipYoverride,-1
;   flipZoverride,1
;   toolheadOffsets,0,0|0,0|0,0|0,0|0,0|0,0
;   overrideFirmwareConfiguration,1
;   firmwareTypeOverride,RepRap (Marlin/Repetier/Sprinter)
;   GPXconfigOverride,r2
;   baudRateOverride,115200
;   overridePrinterModels,0
;   printerModelsOverride
;   startingGcode,G28 ; home all axes,G1 Z5 F3000 ; lift,G1 X20 Y2 F1500 ; avoid binder clips,G1 Z0.2 F3000 ; get ready to prime,G92 E0 ; reset extrusion distance,G1 X120 E10 F600 ; prime nozzle,G1 X150 F5000 ; quick wipe
;   layerChangeGcode,
;   retractionGcode,
;   toolChangeGcode,
;   endingGcode,G28 X0 ; home x axis,M106 S0 ; turn off cooling fan,M104 S0 ; turn off extruder,M140 S0 ; turn off bed,M84 ; disable motors
;   exportFileFormat,gcode
;   celebration,0
;   celebrationSong,Random Song
;   postProcessing,,
;   defaultSpeed,4500
;   outlineUnderspeed,1
;   solidInfillUnderspeed,0.8
;   supportUnderspeed,0.8
;   rapidXYspeed,7998
;   rapidZspeed,1998
;   minBridgingArea,50
;   bridgingExtraInflation,0
;   bridgingExtrusionMultiplier,1
;   bridgingSpeedMultiplier,1
;   useFixedBridgingAngle,0
;   fixedBridgingAngle,0
;   applyBridgingToPerimeters,0
;   filamentDiameters,1.75|1.75|1.75|1.75|1.75|1.75
;   filamentPricesPerKg,46|46|46|46|46|46
;   filamentDensities,1.25|1.25|1.25|1.25|1.25|1.25
;   useMinPrintHeight,0
;   minPrintHeight,31.01
;   useMaxPrintHeight,0
;   maxPrintHeight,32.29
;   useDiaphragm,0
;   diaphragmLayerInterval,20
;   robustSlicing,1
;   mergeAllIntoSolid,0
;   onlyRetractWhenCrossingOutline,0
;   retractBetweenLayers,1
;   useRetractionMinTravel,1
;   retractionMinTravel,2
;   retractWhileWiping,1
;   onlyWipeOutlines,1
;   avoidCrossingOutline,1
;   maxMovementDetourFactor,3
;   toolChangeRetractionDistance,12
;   toolChangeExtraRestartDistance,-0.5
;   toolChangeRetractionSpeed,600
;   externalThinWallType,0
;   internalThinWallType,2
;   thinWallAllowedOverlapPercentage,20
;   singleExtrusionMinLength,1
;   singleExtrusionMinPrintingWidthPercentage,50
;   singleExtrusionMaxPrintingWidthPercentage,200
;   singleExtrusionEndpointExtension,0.2
;   horizontalSizeCompensation,0
G90
M82
M106 S0
M140 S80
M190 S80
M104 S260 T0
M109 S260 T0
G28 ; home all axes
G1 Z5 F3000 ; lift
G1 X20 Y2 F1500 ; avoid binder clips
G1 Z0.2 F3000 ; get ready to prime
G92 E0 ; reset extrusion distance
G1 X120 E10 F600 ; prime nozzle
G1 X150 F5000 ; quick wipe
G92 E0
G1 E-1.5000 F2100
G1 Z0.220 F1998
; process Process1
; layer 1, Z = 0.220
T0
; tool H0.220 W0.960
; skirt
G1 X22.743 Y21.492 F7998
G1 E0.0000 F630
G92 E0
G1 X22.755 Y21.480 E0.0015 F1800
G1 X23.568 Y20.657 E0.1031
G1 X23.580 Y20.645 E0.1045
G1 X23.599 Y20.627 E0.1069
G1 X23.612 Y20.615 E0.1084
G1 X24.458 Y19.825 E0.2100
G1 X24.470 Y19.814 E0.2115
G1 X24.490 Y19.796 E0.2138
G1 X24.503 Y19.785 E0.2153
G1 X25.380 Y19.030 E0.3169
G1 X25.392 Y19.019 E0.3184
G1 X25.413 Y19.002 E0.3207
G1 X25.426 Y18.991 E0.3222
G1 X26.332 Y18.272 E0.4238
G1 X26.344 Y18.263 E0.4251
G1 X26.365 Y18.246 E0.4275
G1 X26.380 Y18.235 E0.4291
G1 X27.315 Y17.552 E0.5308
G1 X27.329 Y17.542 E0.5323
G1 X27.351 Y17.527 E0.5346
G1 X27.365 Y17.518 E0.5361
G1 X28.325 Y16.873 E0.6377
G1 X28.339 Y16.864 E0.6391
G1 X28.361 Y16.850 E0.6414
G1 X28.376 Y16.840 E0.6430
G1 X29.363 Y16.234 E0.7446
G1 X29.377 Y16.226 E0.7461
G1 X29.400 Y16.212 E0.7485
G1 X29.415 Y16.204 E0.7499
G1 X30.424 Y15.638 E0.8515
G1 X30.438 Y15.630 E0.8530
G1 X30.462 Y15.618 E0.8553
G1 X30.477 Y15.610 E0.8568
G1 X31.509 Y15.084 E0.9585
G1 X31.525 Y15.077 E0.9600
G1 X31.549 Y15.065 E0.9624
G1 X31.564 Y15.058 E0.9638
G1 X32.615 Y14.575 E1.0654
G1 X32.629 Y14.568 E1.0668
G1 X32.654 Y14.557 E1.0692
G1 X32.670 Y14.551 E1.0707
G1 X33.740 Y14.110 E1.1723
G1 X33.756 Y14.104 E1.1738
G1 X33.781 Y14.094 E1.1761
G1 X33.796 Y14.088 E1.1776
G1 X34.883 Y13.690 E1.2792
G1 X34.899 Y13.685 E1.2807
G1 X34.924 Y13.676 E1.2831
G1 X34.940 Y13.671 E1.2845
G1 X36.043 Y13.316 E1.3862
G1 X36.060 Y13.311 E1.3878
G1 X36.085 Y13.304 E1.3901
G1 X36.101 Y13.299 E1.3915
G1 X37.216 Y12.990 E1.4931
G1 X37.232 Y12.985 E1.4946
G1 X37.258 Y12.979 E1.4970
G1 X37.274 Y12.975 E1.4984
G1 X38.400 Y12.710 E1.6000
G1 X38.416 Y12.707 E1.6014
G1 X38.442 Y12.701 E1.6038
G1 X38.459 Y12.697 E1.6053
G1 X39.596 Y12.478 E1.7069
G1 X39.612 Y12.475 E1.7084
G1 X39.639 Y12.470 E1.7108
G1 X39.655 Y12.468 E1.7122
G1 X40.799 Y12.294 E1.8138
G1 X40.815 Y12.292 E1.8153
G1 X40.842 Y12.288 E1.8176
G1 X40.859 Y12.286 E1.8192
G1 X42.010 Y12.158 E1.9208
G1 X42.026 Y12.157 E1.9222
G1 X42.053 Y12.154 E1.9246
G1 X42.070 Y12.153 E1.9261
G1 X43.225 Y12.071 E2.0277
G1 X43.242 Y12.070 E2.0293
G1 X43.269 Y12.069 E2.0316
G1 X43.285 Y12.068 E2.0331
G1 X44.442 Y12.033 E2.1347
G1 X44.459 Y12.032 E2.1362
G1 X44.486 Y12.032 E2.1385
G1 X44.502 Y12.032 E2.1400
G1 X45.677 Y12.043 E2.2431
G1 X45.694 Y12.043 E2.2446
G1 X45.721 Y12.044 E2.2470
G1 X45.739 Y12.045 E2.2485
G1 X46.877 Y12.102 E2.3486
G1 X46.894 Y12.103 E2.3501
G1 X46.920 Y12.105 E2.3524
G1 X46.936 Y12.106 E2.3538
G1 X48.089 Y12.209 E2.4554
G1 X48.106 Y12.211 E2.4570
G1 X48.133 Y12.214 E2.4593
G1 X48.149 Y12.216 E2.4608
G1 X49.296 Y12.365 E2.5623
G1 X49.313 Y12.368 E2.5638
G1 X49.339 Y12.372 E2.5662
G1 X49.356 Y12.374 E2.5677
G1 X50.497 Y12.569 E2.6693
G1 X50.513 Y12.572 E2.6707
G1 X50.539 Y12.577 E2.6731
G1 X50.556 Y12.581 E2.6746
G1 X51.688 Y12.822 E2.7762
G1 X51.705 Y12.825 E2.7777
G1 X51.731 Y12.831 E2.7801
G1 X51.747 Y12.835 E2.7815
G1 X52.868 Y13.121 E2.8831
G1 X52.884 Y13.125 E2.8846
G1 X52.910 Y13.132 E2.8869
G1 X52.926 Y13.137 E2.8884
G1 X54.035 Y13.467 E2.9900
G1 X54.051 Y13.472 E2.9914
G1 X54.076 Y13.480 E2.9938
G1 X54.093 Y13.486 E2.9953
G1 X55.188 Y13.860 E3.0970
G1 X55.205 Y13.866 E3.0985
G1 X55.230 Y13.875 E3.1008
G1 X55.245 Y13.881 E3.1023
G1 X56.324 Y14.299 E3.2039
G1 X56.340 Y14.305 E3.2054
G1 X56.365 Y14.316 E3.2078
G1 X56.380 Y14.322 E3.2092
G1 X57.441 Y14.783 E3.3108
G1 X57.456 Y14.789 E3.3122
G1 X57.480 Y14.800 E3.3146
G1 X57.496 Y14.808 E3.3161
G1 X58.539 Y15.311 E3.4178
G1 X58.555 Y15.319 E3.4194
G1 X58.579 Y15.331 E3.4217
G1 X58.593 Y15.339 E3.4231
G1 X59.614 Y15.883 E3.5247
G1 X59.628 Y15.890 E3.5261
G1 X59.652 Y15.904 E3.5285
G1 X59.667 Y15.912 E3.5300
G1 X60.666 Y16.497 E3.6316
G1 X60.681 Y16.506 E3.6332
G1 X60.704 Y16.520 E3.6355
G1 X60.717 Y16.529 E3.6369
G1 X61.692 Y17.153 E3.7386
G1 X61.707 Y17.163 E3.7401
G1 X61.729 Y17.177 E3.7425
G1 X61.742 Y17.186 E3.7439
G1 X62.690 Y17.849 E3.8454
G1 X62.703 Y17.858 E3.8468
G1 X62.725 Y17.873 E3.8491
G1 X62.739 Y17.884 E3.8507
G1 X63.661 Y18.585 E3.9524
G1 X63.675 Y18.595 E3.9539
G1 X63.696 Y18.612 E3.9562
G1 X63.708 Y18.622 E3.9577
G1 X64.601 Y19.358 E4.0592
G1 X64.613 Y19.368 E4.0606
G1 X64.633 Y19.385 E4.0630
G1 X64.647 Y19.397 E4.0645
G1 X65.510 Y20.169 E4.1662
G1 X65.522 Y20.181 E4.1677
G1 X65.542 Y20.199 E4.1701
G1 X65.554 Y20.211 E4.1715
G1 X66.385 Y21.016 E4.2731
G1 X66.397 Y21.028 E4.2746
G1 X66.416 Y21.047 E4.2770
G1 X66.427 Y21.059 E4.2784
G1 X67.226 Y21.897 E4.3801
G1 X67.237 Y21.909 E4.3816
G1 X67.255 Y21.929 E4.3839
G1 X67.266 Y21.942 E4.3854
G1 X68.030 Y22.811 E4.4870
G1 X68.042 Y22.824 E4.4885
G1 X68.059 Y22.845 E4.4909
G1 X68.069 Y22.857 E4.4923
G1 X68.798 Y23.756 E4.5939
G1 X68.809 Y23.770 E4.5954
G1 X68.825 Y23.791 E4.5978
G1 X68.835 Y23.804 E4.5992
G1 X69.527 Y24.731 E4.7008
G1 X69.536 Y24.744 E4.7022
G1 X69.551 Y24.765 E4.7045
G1 X69.562 Y24.780 E4.7061
G1 X70.216 Y25.735 E4.8078
G1 X70.226 Y25.749 E4.8092
G1 X70.240 Y25.771 E4.8116
G1 X70.250 Y25.786 E4.8131
G1 X70.865 Y26.766 E4.9147
G1 X70.874 Y26.780 E4.9161
G1 X70.888 Y26.803 E4.9185
G1 X70.896 Y26.817 E4.9200
G1 X71.472 Y27.822 E5.0216
G1 X71.481 Y27.837 E5.0232
G1 X71.494 Y27.860 E5.0255
G1 X71.501 Y27.875 E5.0269
G1 X72.037 Y28.900 E5.1285
G1 X72.044 Y28.915 E5.1300
G1 X72.056 Y28.939 E5.1323
G1 X72.063 Y28.954 E5.1338
G1 X72.557 Y30.001 E5.2355
G1 X72.564 Y30.016 E5.2370
G1 X72.575 Y30.041 E5.2393
G1 X72.582 Y30.056 E5.2408
G1 X73.034 Y31.122 E5.3424
G1 X73.040 Y31.138 E5.3439
G1 X73.050 Y31.163 E5.3463
G1 X73.056 Y31.178 E5.3477
G1 X73.465 Y32.261 E5.4493
G1 X73.471 Y32.277 E5.4509
G1 X73.480 Y32.303 E5.4532
G1 X73.485 Y32.318 E5.4547
G1 X73.850 Y33.416 E5.5562
G1 X73.855 Y33.431 E5.5577
G1 X73.863 Y33.457 E5.5600
G1 X73.868 Y33.474 E5.5615
G1 X74.188 Y34.586 E5.6632
G1 X74.193 Y34.602 E5.6646
G1 X74.200 Y34.627 E5.6670
G1 X74.204 Y34.644 E5.6685
G1 X74.480 Y35.768 E5.7701
G1 X74.484 Y35.785 E5.7716
G1 X74.490 Y35.811 E5.7739
G1 X74.493 Y35.827 E5.7754
G1 X74.724 Y36.961 E5.8770
G1 X74.727 Y36.977 E5.8785
G1 X74.732 Y37.004 E5.8808
G1 X74.735 Y37.020 E5.8823
G1 X74.920 Y38.163 E5.9839
G1 X74.922 Y38.180 E5.9854
G1 X74.926 Y38.206 E5.9878
G1 X74.928 Y38.223 E5.9893
G1 X75.068 Y39.372 E6.0909
G1 X75.070 Y39.390 E6.0925
G1 X75.072 Y39.417 E6.0949
G1 X75.074 Y39.432 E6.0962
G1 X75.167 Y40.585 E6.1978
G1 X75.168 Y40.603 E6.1993
G1 X75.170 Y40.629 E6.2017
G1 X75.171 Y40.646 E6.2031
G1 X75.218 Y41.802 E6.3047
G1 X75.218 Y41.818 E6.3062
G1 X75.219 Y41.845 E6.3085
G1 X75.219 Y41.862 E6.3100
G1 X75.220 Y43.038 E6.4132
G1 X75.220 Y43.055 E6.4147
G1 X75.219 Y43.082 E6.4171
G1 X75.218 Y43.099 E6.4186
G1 X75.173 Y44.237 E6.5186
G1 X75.172 Y44.253 E6.5200
G1 X75.171 Y44.279 E6.5224
G1 X75.169 Y44.297 E6.5239
G1 X75.078 Y45.451 E6.6255
G1 X75.076 Y45.468 E6.6270
G1 X75.073 Y45.495 E6.6294
G1 X75.072 Y45.511 E6.6308
G1 X74.934 Y46.660 E6.7324
G1 X74.931 Y46.676 E6.7339
G1 X74.928 Y46.703 E6.7363
G1 X74.925 Y46.719 E6.7377
G1 X74.742 Y47.862 E6.8393
G1 X74.739 Y47.878 E6.8408
G1 X74.734 Y47.904 E6.8431
G1 X74.731 Y47.921 E6.8446
G1 X74.501 Y49.055 E6.9462
G1 X74.498 Y49.071 E6.9476
G1 X74.492 Y49.097 E6.9500
G1 X74.488 Y49.114 E6.9515
G1 X74.214 Y50.239 E7.0532
G1 X74.209 Y50.256 E7.0547
G1 X74.203 Y50.282 E7.0571
G1 X74.198 Y50.298 E7.0585
G1 X73.879 Y51.410 E7.1601
G1 X73.874 Y51.427 E7.1617
G1 X73.866 Y51.452 E7.1640
G1 X73.861 Y51.468 E7.1655
G1 X73.498 Y52.566 E7.2670
G1 X73.493 Y52.581 E7.2684
G1 X73.484 Y52.606 E7.2707
G1 X73.478 Y52.623 E7.2723
G1 X73.070 Y53.707 E7.3740
G1 X73.064 Y53.723 E7.3755
G1 X73.054 Y53.748 E7.3778
G1 X73.048 Y53.763 E7.3793
G1 X72.598 Y54.829 E7.4809
G1 X72.591 Y54.845 E7.4824
G1 X72.580 Y54.869 E7.4848
G1 X72.573 Y54.884 E7.4862
G1 X72.080 Y55.932 E7.5879
G1 X72.073 Y55.947 E7.5894
G1 X72.061 Y55.971 E7.5917
G1 X72.053 Y55.986 E7.5932
G1 X71.520 Y57.012 E7.6948
G1 X71.511 Y57.028 E7.6963
G1 X71.499 Y57.051 E7.6986
G1 X71.491 Y57.065 E7.7001
G1 X70.916 Y58.070 E7.8017
G1 X70.907 Y58.084 E7.8032
G1 X70.894 Y58.107 E7.8055
G1 X70.885 Y58.122 E7.8070
G1 X70.271 Y59.102 E7.9086
G1 X70.261 Y59.117 E7.9101
G1 X70.247 Y59.139 E7.9125
G1 X70.237 Y59.153 E7.9139
G1 X69.584 Y60.109 E8.0156
G1 X69.574 Y60.123 E8.0171
G1 X69.558 Y60.145 E8.0195
G1 X69.549 Y60.158 E8.0209
G1 X68.858 Y61.086 E8.1224
G1 X68.848 Y61.100 E8.1239
G1 X68.832 Y61.121 E8.1263
G1 X68.821 Y61.134 E8.1278
G1 X68.094 Y62.034 E8.2294
G1 X68.083 Y62.047 E8.2309
G1 X68.065 Y62.068 E8.2333
G1 X68.055 Y62.080 E8.2347
G1 X67.292 Y62.950 E8.3363
G1 X67.281 Y62.963 E8.3378
G1 X67.263 Y62.983 E8.3402
G1 X67.251 Y62.995 E8.3416
G1 X66.454 Y63.834 E8.4432
G1 X66.442 Y63.847 E8.4448
G1 X66.423 Y63.866 E8.4471
G1 X66.412 Y63.877 E8.4485
G1 X65.582 Y64.684 E8.5502
G1 X65.569 Y64.696 E8.5517
G1 X65.549 Y64.714 E8.5541
G1 X65.537 Y64.725 E8.5555
G1 X64.676 Y65.497 E8.6571
G1 X64.664 Y65.508 E8.6585
G1 X64.643 Y65.526 E8.6609
G1 X64.630 Y65.537 E8.6624
G1 X63.738 Y66.274 E8.7640
G1 X63.725 Y66.285 E8.7655
G1 X63.704 Y66.302 E8.7679
G1 X63.691 Y66.312 E8.7693
G1 X62.771 Y67.013 E8.8709
G1 X62.758 Y67.023 E8.8723
G1 X62.736 Y67.039 E8.8747
G1 X62.722 Y67.049 E8.8762
G1 X61.774 Y67.713 E8.9779
G1 X61.759 Y67.722 E8.9794
G1 X61.737 Y67.737 E8.9817
G1 X61.723 Y67.746 E8.9832
G1 X60.749 Y68.372 E9.0848
G1 X60.734 Y68.381 E9.0864
G1 X60.711 Y68.395 E9.0887
G1 X60.698 Y68.404 E9.0901
G1 X59.700 Y68.989 E9.1917
G1 X59.685 Y68.998 E9.1932
G1 X59.662 Y69.011 E9.1956
