; G-Code generated by Simplify3D(R) Version 4.0.0
; Feb 26, 2021 at 12:46:48 AM
; Settings Summary
;   processName,Process1
;   applyToModels,top seringue
;   profileName,BOX 3.0 (modified)
;   profileVersion,2021-02-08 22:01:06
;   baseProfile,
;   printMaterial,
;   printQuality,
;   printExtruders,
;   extruderName,Primary Extruder
;   extruderToolheadNumber,0
;   extruderDiameter,0.4
;   extruderAutoWidth,1
;   extruderWidth,0.48
;   extrusionMultiplier,1
;   extruderUseRetract,1
;   extruderRetractionDistance,1.5
;   extruderExtraRestartDistance,0
;   extruderRetractionZLift,0
;   extruderRetractionSpeed,2100
;   extruderUseCoasting,0
;   extruderCoastingDistance,0.2
;   extruderUseWipe,0
;   extruderWipeDistance,5
;   primaryExtruder,0
;   layerHeight,0.2
;   topSolidLayers,3
;   bottomSolidLayers,3
;   perimeterOutlines,3
;   printPerimetersInsideOut,1
;   startPointOption,2
;   startPointOriginX,0
;   startPointOriginY,0
;   sequentialIslands,0
;   spiralVaseMode,0
;   firstLayerHeightPercentage,110
;   firstLayerWidthPercentage,200
;   firstLayerUnderspeed,0.4
;   useRaft,0
;   raftExtruder,0
;   raftTopLayers,2
;   raftBaseLayers,2
;   raftOffset,3
;   raftSeparationDistance,0.42
;   raftTopInfill,100
;   aboveRaftSpeedMultiplier,0.3
;   useSkirt,1
;   skirtExtruder,0
;   skirtLayers,1
;   skirtOutlines,4
;   skirtOffset,0.5
;   usePrimePillar,0
;   primePillarExtruder,999
;   primePillarWidth,12
;   primePillarLocation,7
;   primePillarSpeedMultiplier,1
;   useOozeShield,0
;   oozeShieldExtruder,999
;   oozeShieldOffset,2
;   oozeShieldOutlines,1
;   oozeShieldSidewallShape,1
;   oozeShieldSidewallAngle,30
;   oozeShieldSpeedMultiplier,1
;   infillExtruder,0
;   internalInfillPattern,Rectilinear
;   externalInfillPattern,Rectilinear
;   infillPercentage,20
;   outlineOverlapPercentage,20
;   infillExtrusionWidthPercentage,100
;   minInfillLength,5
;   infillLayerInterval,1
;   internalInfillAngles,45,-45
;   overlapInternalInfillAngles,0
;   externalInfillAngles,45,-45
;   generateSupport,0
;   supportExtruder,0
;   supportInfillPercentage,60
;   supportExtraInflation,0
;   supportBaseLayers,0
;   denseSupportExtruder,0
;   denseSupportLayers,0
;   denseSupportInfillPercentage,70
;   supportLayerInterval,2
;   supportHorizontalPartOffset,0.42
;   supportUpperSeparationLayers,1
;   supportLowerSeparationLayers,1
;   supportType,0
;   supportGridSpacing,4
;   maxOverhangAngle,45
;   supportAngles,0
;   temperatureName,Primary Extruder,Heated Bed
;   temperatureNumber,0,0
;   temperatureSetpointCount,2,1
;   temperatureSetpointLayers,1,2,1
;   temperatureSetpointTemperatures,250,240,80
;   temperatureStabilizeAtStartup,1,1
;   temperatureHeatedBed,0,1
;   temperatureRelayBetweenLayers,0,0
;   temperatureRelayBetweenLoops,0,0
;   fanLayers,1,2
;   fanSpeeds,0,100
;   blipFanToFullPower,0
;   adjustSpeedForCooling,0
;   minSpeedLayerTime,15
;   minCoolingSpeedSlowdown,20
;   increaseFanForCooling,0
;   minFanLayerTime,45
;   maxCoolingFanSpeed,100
;   increaseFanForBridging,0
;   bridgingFanSpeed,100
;   use5D,1
;   relativeEdistances,0
;   allowEaxisZeroing,1
;   independentExtruderAxes,0
;   includeM10123,0
;   stickySupport,1
;   applyToolheadOffsets,0
;   gcodeXoffset,0
;   gcodeYoffset,0
;   gcodeZoffset,0
;   overrideMachineDefinition,1
;   machineTypeOverride,0
;   strokeXoverride,400
;   strokeYoverride,400
;   strokeZoverride,500
;   originOffsetXoverride,0
;   originOffsetYoverride,0
;   originOffsetZoverride,0
;   homeXdirOverride,-1
;   homeYdirOverride,-1
;   homeZdirOverride,-1
;   flipXoverride,1
;   flipYoverride,-1
;   flipZoverride,1
;   toolheadOffsets,0,0|0,0|0,0|0,0|0,0|0,0
;   overrideFirmwareConfiguration,1
;   firmwareTypeOverride,RepRap (Marlin/Repetier/Sprinter)
;   GPXconfigOverride,r2
;   baudRateOverride,115200
;   overridePrinterModels,0
;   printerModelsOverride
;   startingGcode,G28 ; home all axes,G1 Z5 F3000 ; lift,G1 X20 Y2 F1500 ; avoid binder clips,G1 Z0.2 F3000 ; get ready to prime,G92 E0 ; reset extrusion distance,G1 X120 E10 F600 ; prime nozzle,G1 X150 F5000 ; quick wipe
;   layerChangeGcode,
;   retractionGcode,
;   toolChangeGcode,
;   endingGcode,G28 X0 ; home x axis,M106 S0 ; turn off cooling fan,M104 S0 ; turn off extruder,M140 S0 ; turn off bed,M84 ; disable motors
;   exportFileFormat,gcode
;   celebration,0
;   celebrationSong,Random Song
;   postProcessing,,
;   defaultSpeed,4500
;   outlineUnderspeed,1
;   solidInfillUnderspeed,0.8
;   supportUnderspeed,0.8
;   rapidXYspeed,7998
;   rapidZspeed,1998
;   minBridgingArea,50
;   bridgingExtraInflation,0
;   bridgingExtrusionMultiplier,1
;   bridgingSpeedMultiplier,1
;   useFixedBridgingAngle,0
;   fixedBridgingAngle,0
;   applyBridgingToPerimeters,0
;   filamentDiameters,1.75|1.75|1.75|1.75|1.75|1.75
;   filamentPricesPerKg,46|46|46|46|46|46
;   filamentDensities,1.25|1.25|1.25|1.25|1.25|1.25
;   useMinPrintHeight,0
;   minPrintHeight,31.01
;   useMaxPrintHeight,0
;   maxPrintHeight,32.29
;   useDiaphragm,0
;   diaphragmLayerInterval,20
;   robustSlicing,1
;   mergeAllIntoSolid,0
;   onlyRetractWhenCrossingOutline,0
;   retractBetweenLayers,1
;   useRetractionMinTravel,1
;   retractionMinTravel,2
;   retractWhileWiping,1
;   onlyWipeOutlines,1
;   avoidCrossingOutline,1
;   maxMovementDetourFactor,3
;   toolChangeRetractionDistance,12
;   toolChangeExtraRestartDistance,-0.5
;   toolChangeRetractionSpeed,600
;   externalThinWallType,0
;   internalThinWallType,2
;   thinWallAllowedOverlapPercentage,20
;   singleExtrusionMinLength,1
;   singleExtrusionMinPrintingWidthPercentage,50
;   singleExtrusionMaxPrintingWidthPercentage,200
;   singleExtrusionEndpointExtension,0.2
;   horizontalSizeCompensation,0
G90
M82
M106 S0
M140 S80
M190 S80
M104 S250 T0
M109 S250 T0
G28 ; home all axes
G1 Z5 F3000 ; lift
G1 X20 Y2 F1500 ; avoid binder clips
G1 Z0.2 F3000 ; get ready to prime
G92 E0 ; reset extrusion distance
G1 X120 E10 F600 ; prime nozzle
G1 X150 F5000 ; quick wipe
G92 E0
G1 E-1.5000 F2100
G1 Z0.220 F1998
; process Process1
; layer 1, Z = 0.220
T0
; tool H0.220 W0.960
; skirt
G1 X22.258 Y24.427 F7998
G1 E0.0000 F630
G92 E0
G1 X22.914 Y23.843 E0.0771 F1800
G1 X22.938 Y23.823 E0.0798
G1 X22.977 Y23.790 E0.0843
G1 X23.002 Y23.771 E0.0871
G1 X23.706 Y23.233 E0.1649
G1 X23.733 Y23.213 E0.1678
G1 X23.774 Y23.184 E0.1723
G1 X23.801 Y23.166 E0.1751
G1 X24.545 Y22.683 E0.2530
G1 X24.572 Y22.666 E0.2558
G1 X24.616 Y22.640 E0.2603
G1 X24.644 Y22.624 E0.2631
G1 X25.423 Y22.200 E0.3410
G1 X25.452 Y22.185 E0.3438
G1 X25.498 Y22.162 E0.3483
G1 X25.527 Y22.148 E0.3511
G1 X26.336 Y21.785 E0.4290
G1 X26.365 Y21.772 E0.4319
G1 X26.413 Y21.753 E0.4364
G1 X26.443 Y21.742 E0.4392
G1 X27.277 Y21.441 E0.5170
G1 X27.307 Y21.431 E0.5198
G1 X27.356 Y21.416 E0.5243
G1 X27.387 Y21.406 E0.5272
G1 X28.242 Y21.171 E0.6050
G1 X28.273 Y21.163 E0.6079
G1 X28.323 Y21.151 E0.6124
G1 X28.355 Y21.144 E0.6152
G1 X29.225 Y20.975 E0.6931
G1 X29.257 Y20.969 E0.6959
G1 X29.308 Y20.961 E0.7004
G1 X29.339 Y20.957 E0.7032
G1 X30.220 Y20.854 E0.7811
G1 X30.252 Y20.851 E0.7839
G1 X30.303 Y20.847 E0.7884
G1 X30.335 Y20.845 E0.7912
G1 X31.209 Y20.811 E0.8680
G1 X31.226 Y20.811 E0.8695
G1 X31.252 Y20.810 E0.8718
G1 X31.268 Y20.810 E0.8732
G1 X124.114 Y20.810 E9.0257
G1 X124.129 Y20.810 E9.0271
G1 X124.155 Y20.810 E9.0293
G1 X124.172 Y20.811 E9.0307
G1 X125.035 Y20.844 E9.1067
G1 X125.067 Y20.846 E9.1094
G1 X125.118 Y20.850 E9.1139
G1 X125.150 Y20.853 E9.1167
G1 X126.030 Y20.954 E9.1945
G1 X126.062 Y20.958 E9.1974
G1 X126.113 Y20.966 E9.2019
G1 X126.145 Y20.971 E9.2047
G1 X127.015 Y21.139 E9.2826
G1 X127.047 Y21.146 E9.2854
G1 X127.097 Y21.158 E9.2899
G1 X127.128 Y21.166 E9.2927
G1 X127.983 Y21.400 E9.3706
G1 X128.014 Y21.409 E9.3734
G1 X128.063 Y21.424 E9.3780
G1 X128.094 Y21.435 E9.3808
G1 X128.928 Y21.734 E9.4586
G1 X128.958 Y21.745 E9.4614
G1 X129.006 Y21.764 E9.4659
G1 X129.036 Y21.777 E9.4688
G1 X129.845 Y22.139 E9.5466
G1 X129.874 Y22.152 E9.5494
G1 X129.920 Y22.175 E9.5539
G1 X129.949 Y22.190 E9.5568
G1 X130.728 Y22.613 E9.6347
G1 X130.756 Y22.629 E9.6375
G1 X130.800 Y22.655 E9.6420
G1 X130.828 Y22.672 E9.6448
G1 X131.572 Y23.153 E9.7227
G1 X131.599 Y23.171 E9.7255
G1 X131.641 Y23.201 E9.7300
G1 X131.667 Y23.220 E9.7328
G1 X132.373 Y23.757 E9.8107
G1 X132.398 Y23.777 E9.8135
G1 X132.437 Y23.809 E9.8180
G1 X132.462 Y23.830 E9.8208
G1 X133.125 Y24.420 E9.8987
G1 X133.149 Y24.442 E9.9016
G1 X133.186 Y24.478 E9.9061
G1 X133.208 Y24.500 E9.9089
G1 X133.823 Y25.138 E9.9867
G1 X133.844 Y25.161 E9.9895
G1 X133.879 Y25.199 E9.9940
G1 X133.900 Y25.224 E9.9969
G1 X134.465 Y25.908 E10.0748
G1 X134.485 Y25.934 E10.0776
G1 X134.516 Y25.974 E10.0821
G1 X134.535 Y26.000 E10.0849
G1 X135.046 Y26.725 E10.1628
G1 X135.064 Y26.752 E10.1656
G1 X135.092 Y26.795 E10.1701
G1 X135.109 Y26.822 E10.1729
G1 X135.563 Y27.584 E10.2508
G1 X135.578 Y27.611 E10.2535
G1 X135.603 Y27.656 E10.2580
G1 X135.618 Y27.685 E10.2609
G1 X136.012 Y28.480 E10.3388
G1 X136.026 Y28.509 E10.3417
G1 X136.047 Y28.556 E10.3462
G1 X136.060 Y28.585 E10.3490
G1 X136.392 Y29.408 E10.4268
G1 X136.403 Y29.438 E10.4297
G1 X136.421 Y29.486 E10.4342
G1 X136.431 Y29.516 E10.4370
G1 X136.699 Y30.362 E10.5149
G1 X136.708 Y30.392 E10.5177
G1 X136.722 Y30.442 E10.5222
G1 X136.730 Y30.473 E10.5250
G1 X136.933 Y31.336 E10.6029
G1 X136.940 Y31.368 E10.6057
G1 X136.949 Y31.418 E10.6102
G1 X136.955 Y31.450 E10.6130
G1 X137.091 Y32.326 E10.6909
G1 X137.095 Y32.358 E10.6937
G1 X137.101 Y32.409 E10.6982
G1 X137.104 Y32.441 E10.7011
G1 X137.173 Y33.325 E10.7789
G1 X137.175 Y33.357 E10.7817
G1 X137.177 Y33.408 E10.7862
G1 X137.178 Y33.441 E10.7891
G1 X137.178 Y34.327 E10.8669
G1 X137.178 Y34.360 E10.8698
G1 X137.176 Y34.411 E10.8743
G1 X137.174 Y34.443 E10.8771
G1 X137.107 Y35.328 E10.9550
G1 X137.104 Y35.361 E10.9579
G1 X137.098 Y35.412 E10.9624
G1 X137.094 Y35.443 E10.9651
G1 X136.959 Y36.318 E11.0430
G1 X136.954 Y36.350 E11.0458
G1 X136.944 Y36.401 E11.0503
G1 X136.937 Y36.432 E11.0531
G1 X136.736 Y37.296 E11.1310
G1 X136.728 Y37.327 E11.1338
G1 X136.714 Y37.377 E11.1383
G1 X136.705 Y37.407 E11.1412
G1 X136.438 Y38.253 E11.2190
G1 X136.428 Y38.284 E11.2219
G1 X136.411 Y38.332 E11.2264
G1 X136.399 Y38.362 E11.2292
G1 X136.069 Y39.185 E11.3070
G1 X136.056 Y39.214 E11.3099
G1 X136.035 Y39.261 E11.3144
G1 X136.021 Y39.290 E11.3172
G1 X135.629 Y40.085 E11.3951
G1 X135.614 Y40.114 E11.3979
G1 X135.589 Y40.159 E11.4024
G1 X135.573 Y40.187 E11.4052
G1 X135.121 Y40.950 E11.4831
G1 X135.104 Y40.977 E11.4859
G1 X135.076 Y41.020 E11.4904
G1 X135.058 Y41.047 E11.4932
G1 X134.549 Y41.772 E11.5711
G1 X134.530 Y41.798 E11.5739
G1 X134.499 Y41.839 E11.5784
G1 X134.479 Y41.864 E11.5813
G1 X133.915 Y42.549 E11.6591
G1 X133.895 Y42.573 E11.6618
G1 X133.861 Y42.611 E11.6664
G1 X133.838 Y42.635 E11.6692
G1 X133.224 Y43.275 E11.7471
G1 X133.201 Y43.297 E11.7499
G1 X133.164 Y43.333 E11.7544
G1 X133.141 Y43.355 E11.7573
G1 X132.479 Y43.946 E11.8352
G1 X132.454 Y43.967 E11.8380
G1 X132.415 Y43.999 E11.8425
G1 X132.390 Y44.019 E11.8453
G1 X131.685 Y44.557 E11.9232
G1 X131.659 Y44.576 E11.9260
G1 X131.617 Y44.606 E11.9305
G1 X131.591 Y44.624 E11.9333
G1 X130.846 Y45.107 E12.0112
G1 X130.819 Y45.124 E12.0140
G1 X130.775 Y45.150 E12.0185
G1 X130.747 Y45.166 E12.0214
G1 X129.968 Y45.590 E12.0992
G1 X129.940 Y45.605 E12.1021
G1 X129.894 Y45.628 E12.1066
G1 X129.865 Y45.642 E12.1094
G1 X129.056 Y46.005 E12.1872
G1 X129.026 Y46.018 E12.1901
G1 X128.979 Y46.037 E12.1946
G1 X128.949 Y46.048 E12.1974
G1 X128.115 Y46.349 E12.2752
G1 X128.084 Y46.359 E12.2781
G1 X128.035 Y46.375 E12.2826
G1 X128.004 Y46.384 E12.2854
G1 X127.149 Y46.620 E12.3633
G1 X127.118 Y46.627 E12.3661
G1 X127.068 Y46.639 E12.3706
G1 X127.037 Y46.646 E12.3734
G1 X126.167 Y46.815 E12.4513
G1 X126.135 Y46.821 E12.4541
G1 X126.085 Y46.829 E12.4586
G1 X126.052 Y46.833 E12.4614
G1 X125.171 Y46.936 E12.5393
G1 X125.139 Y46.939 E12.5422
G1 X125.088 Y46.943 E12.5467
G1 X125.056 Y46.945 E12.5495
G1 X124.182 Y46.979 E12.6262
G1 X124.166 Y46.979 E12.6277
G1 X124.140 Y46.980 E12.6300
G1 X124.123 Y46.980 E12.6314
G1 X31.278 Y46.980 E20.7839
G1 X31.262 Y46.980 E20.7853
G1 X31.236 Y46.980 E20.7875
G1 X31.220 Y46.979 E20.7890
G1 X30.356 Y46.946 E20.8649
G1 X30.324 Y46.944 E20.8677
G1 X30.274 Y46.941 E20.8721
G1 X30.242 Y46.937 E20.8749
G1 X29.361 Y46.837 E20.9528
G1 X29.329 Y46.832 E20.9556
G1 X29.278 Y46.824 E20.9601
G1 X29.247 Y46.819 E20.9629
G1 X28.376 Y46.651 E21.0408
G1 X28.344 Y46.644 E21.0436
G1 X28.294 Y46.632 E21.0481
G1 X28.263 Y46.625 E21.0510
G1 X27.408 Y46.390 E21.1288
G1 X27.377 Y46.381 E21.1317
G1 X27.328 Y46.366 E21.1362
G1 X27.298 Y46.356 E21.1390
G1 X26.463 Y46.057 E21.2168
G1 X26.433 Y46.045 E21.2197
G1 X26.385 Y46.026 E21.2242
G1 X26.356 Y46.013 E21.2270
G1 X25.546 Y45.651 E21.3049
G1 X25.517 Y45.638 E21.3077
G1 X25.471 Y45.615 E21.3122
G1 X25.443 Y45.600 E21.3150
G1 X24.663 Y45.177 E21.3929
G1 X24.635 Y45.161 E21.3957
G1 X24.591 Y45.135 E21.4002
G1 X24.564 Y45.118 E21.4030
G1 X23.819 Y44.637 E21.4809
G1 X23.793 Y44.619 E21.4837
G1 X23.751 Y44.589 E21.4882
G1 X23.724 Y44.570 E21.4911
G1 X23.019 Y44.033 E21.5689
G1 X22.993 Y44.013 E21.5718
G1 X22.954 Y43.981 E21.5763
G1 X22.929 Y43.960 E21.5791
G1 X22.267 Y43.370 E21.6569
G1 X22.243 Y43.348 E21.6598
G1 X22.206 Y43.313 E21.6643
G1 X22.183 Y43.290 E21.6671
G1 X21.568 Y42.652 E21.7450
G1 X21.546 Y42.628 E21.7478
G1 X21.512 Y42.590 E21.7523
G1 X21.491 Y42.566 E21.7551
G1 X20.926 Y41.882 E21.8330
G1 X20.906 Y41.857 E21.8358
G1 X20.875 Y41.816 E21.8403
G1 X20.856 Y41.790 E21.8431
G1 X20.345 Y41.065 E21.9210
G1 X20.328 Y41.039 E21.9238
G1 X20.300 Y40.996 E21.9283
G1 X20.282 Y40.968 E21.9311
G1 X19.829 Y40.206 E22.0090
G1 X19.813 Y40.178 E22.0118
G1 X19.788 Y40.133 E22.0164
G1 X19.773 Y40.105 E22.0192
G1 X19.379 Y39.310 E22.0971
G1 X19.365 Y39.281 E22.0999
G1 X19.344 Y39.234 E22.1044
G1 X19.332 Y39.205 E22.1072
G1 X18.999 Y38.383 E22.1851
G1 X18.988 Y38.353 E22.1879
G1 X18.971 Y38.304 E22.1924
G1 X18.960 Y38.274 E22.1952
G1 X18.692 Y37.429 E22.2731
G1 X18.683 Y37.398 E22.2759
G1 X18.669 Y37.348 E22.2804
G1 X18.661 Y37.317 E22.2832
G1 X18.458 Y36.454 E22.3611
G1 X18.452 Y36.422 E22.3639
G1 X18.442 Y36.372 E22.3685
G1 X18.436 Y36.340 E22.3713
G1 X18.300 Y35.464 E22.4491
G1 X18.296 Y35.433 E22.4519
G1 X18.290 Y35.382 E22.4564
G1 X18.287 Y35.349 E22.4593
G1 X18.218 Y34.465 E22.5371
G1 X18.216 Y34.433 E22.5400
G1 X18.214 Y34.382 E22.5445
G1 X18.214 Y34.349 E22.5473
G1 X18.213 Y33.463 E22.6252
G1 X18.214 Y33.430 E22.6280
G1 X18.216 Y33.379 E22.6325
G1 X18.217 Y33.347 E22.6353
G1 X18.284 Y32.463 E22.7132
G1 X18.287 Y32.432 E22.7159
G1 X18.293 Y32.381 E22.7205
G1 X18.298 Y32.348 E22.7233
G1 X18.432 Y31.472 E22.8012
G1 X18.437 Y31.441 E22.8039
G1 X18.447 Y31.391 E22.8084
G1 X18.454 Y31.358 E22.8113
G1 X18.656 Y30.494 E22.8892
G1 X18.663 Y30.463 E22.8921
G1 X18.677 Y30.414 E22.8966
G1 X18.686 Y30.383 E22.8994
G1 X18.953 Y29.537 E22.9772
G1 X18.963 Y29.507 E22.9801
G1 X18.980 Y29.458 E22.9846
G1 X18.992 Y29.428 E22.9874
G1 X19.323 Y28.605 E23.0653
G1 X19.336 Y28.574 E23.0682
G1 X19.357 Y28.528 E23.0727
G1 X19.370 Y28.499 E23.0755
G1 X19.763 Y27.705 E23.1533
G1 X19.778 Y27.676 E23.1561
G1 X19.802 Y27.631 E23.1606
G1 X19.818 Y27.603 E23.1634
G1 X20.270 Y26.841 E23.2413
G1 X20.287 Y26.813 E23.2441
G1 X20.315 Y26.770 E23.2486
G1 X20.333 Y26.744 E23.2515
G1 X20.843 Y26.018 E23.3293
G1 X20.862 Y25.992 E23.3321
G1 X20.893 Y25.951 E23.3366
G1 X20.913 Y25.926 E23.3395
G1 X21.476 Y25.241 E23.4173
